(/Applications/pcbgcode.repo/pcb-gcode.ulp)
(Copyright 2005 - 2012 by John Johnson)
(See readme.txt for licensing terms.)
(This file generated from the board:)
(.../eurorack/808_rimshot/eagle/808_rs.brd)
(Current profile is .../pcbgcode.repo/profiles/mach.pp  )
(This file generated 5/8/16 9:46 PM)
(Settings from pcb-machine.h)
(spindle on time = 0.0000)
(spindle speed = 20000.0000)
(tool change at 0.0000  0.0000  1.5000  )
(feed rate xy = F0     )
(feed rate z  = F20    )
(Z Axis Settings)
(  High     Up        Down     Drill)
(0.2500  	0.0500  	-0.0035 	-0.0750 )
(Settings from pcb-defaults.h)
(isolate min = 0.0060)
(isolate max = 0.0200)
(isolate step = 0.0015)
(Generated bottom outlines, bottom drill, )
(Unit of measure: inch)
( Tool|       Size       |  Min Sub |  Max Sub |   Count )
( T01 | 0.800mm 0.0315in | 0.0000in | 0.0000in |       0 )
( T02 | 0.813mm 0.0320in | 0.0000in | 0.0000in |       0 )
( T03 | 1.000mm 0.0394in | 0.0000in | 0.0000in |       0 )
( T04 | 1.016mm 0.0400in | 0.0000in | 0.0000in |       0 )
( T05 | 1.118mm 0.0440in | 0.0000in | 0.0000in |       0 )
( T06 | 1.200mm 0.0472in | 0.0000in | 0.0000in |       0 )
( T07 | 1.300mm 0.0512in | 0.0000in | 0.0000in |       0 )
( T08 | 1.372mm 0.0540in | 0.0000in | 0.0000in |       0 )
(Inch Mode)
G20
(Absolute Coordinates)
G90
S20000
G00 Z0.2500  
G00 X0.0000  Y0.0000  
M03
G04 P0.000000
M05
G00 Z1.5000  
M06 T01  ; 0.0315  
G01 Z0.0000  F20    
M06 
G00 Z0.0500  
M03
G04 P0.000000
G82 X-0.4500 Y1.3000  Z-0.0750 F20    R0.0500  P0.020000
G82 X-0.4500 Y1.6500  
G82 X-0.9500 Y1.7500  
G82 X-1.3100 Y1.4700  
G82 X-2.0200 Y1.1000  
G82 X-2.3500 Y0.9700  
G82 X-1.7500 Y0.4489  
G82 X-1.7500 Y0.3111  
G82 X-1.6000 Y0.3111  
G82 X-1.6000 Y0.4489  
G82 X-3.0500 Y0.3189  
G82 X-3.0500 Y0.1811  
M05
G00 Z1.5000  
G00 X0.0000  Y0.0000  
M06 T02  ; 0.0320  
G01 Z0.0000  F20    
M06 
G00 Z0.0500  
M03
G04 P0.000000
G82 X-0.6500 Y1.5000  Z-0.0750 F20    R0.0500  P0.020000
G82 X-0.6500 Y1.6000  
G82 X-0.8500 Y1.6500  
G82 X-0.7400 Y1.8800  
G82 X-0.7400 Y2.1800  
G82 X-1.2900 Y2.0900  
G82 X-1.4000 Y2.1000  
G82 X-1.5000 Y2.1000  
G82 X-1.5000 Y2.1900  
G82 X-1.6000 Y2.1900  
G82 X-1.6000 Y2.1000  
G82 X-1.7000 Y2.1000  
G82 X-1.6900 Y2.2000  
G82 X-1.6900 Y2.3000  
G82 X-1.9500 Y2.2200  
G82 X-2.1400 Y2.0200  
G82 X-2.1500 Y1.9000  
G82 X-2.3500 Y1.9000  
G82 X-2.3400 Y2.0200  
G82 X-2.6300 Y2.1700  
G82 X-2.6800 Y2.0950  
G82 X-2.7300 Y2.1700  
G82 X-2.8500 Y2.2500  
G82 X-2.8500 Y2.0500  
G82 X-3.0000 Y1.9500  
G82 X-3.0000 Y1.8500  
G82 X-3.0000 Y1.6500  
G82 X-2.8900 Y1.6600  
G82 X-2.7000 Y1.5100  
G82 X-2.5500 Y1.4500  
G82 X-2.3700 Y1.4500  
G82 X-2.3200 Y1.5250  
G82 X-2.2700 Y1.4500  
G82 X-2.1000 Y1.5000  
G82 X-2.1000 Y1.6000  
G82 X-1.8700 Y1.5900  
G82 X-1.8500 Y1.7000  
G82 X-1.7000 Y1.8000  
G82 X-1.6000 Y1.8000  
G82 X-1.5000 Y1.8000  
G82 X-1.4000 Y1.8000  
G82 X-1.4000 Y1.7000  
G82 X-1.5000 Y1.7000  
G82 X-1.6500 Y1.6300  
G82 X-1.6500 Y1.4300  
G82 X-1.6000 Y1.3500  
G82 X-1.7000 Y1.3500  
G82 X-1.8700 Y1.2900  
G82 X-1.9700 Y1.2600  
G82 X-1.8200 Y1.0600  
G82 X-1.8000 Y0.9500  
G82 X-1.9000 Y0.9500  
G82 X-1.7000 Y0.9500  
G82 X-1.6000 Y0.9500  
G82 X-1.6200 Y1.0600  
G82 X-1.6000 Y1.1500  
G82 X-1.7000 Y1.1500  
G82 X-1.4800 Y1.1800  
G82 X-1.4000 Y1.0500  
G82 X-1.4300 Y0.9500  
G82 X-1.3100 Y0.8200  
G82 X-1.4300 Y0.7500  
G82 X-1.5000 Y0.6100  
G82 X-1.6000 Y0.6500  
G82 X-1.7000 Y0.6500  
G82 X-1.8000 Y0.6500  
G82 X-1.9000 Y0.6500  
G82 X-2.1000 Y0.7000  
G82 X-2.2500 Y0.6000  
G82 X-2.1000 Y0.5000  
G82 X-2.1500 Y0.4000  
G82 X-2.1500 Y0.2700  
G82 X-2.3100 Y0.3700  
G82 X-2.5000 Y0.3000  
G82 X-2.5500 Y0.1500  
G82 X-2.7000 Y0.3000  
G82 X-2.6600 Y0.4500  
G82 X-2.5400 Y0.6000  
G82 X-2.4900 Y0.6750  
G82 X-2.4400 Y0.6000  
G82 X-2.4200 Y0.8500  
G82 X-2.5600 Y0.9200  
G82 X-2.6600 Y0.7500  
G82 X-2.8900 Y0.8000  
G82 X-2.8800 Y0.9800  
G82 X-3.0800 Y0.9800  
G82 X-3.1100 Y0.8600  
G82 X-3.1100 Y0.7600  
G82 X-3.0500 Y0.6500  
G82 X-3.0500 Y0.4500  
G82 X-2.8900 Y0.4000  
G82 X-2.8500 Y0.1500  
G82 X-3.2500 Y0.2500  
G82 X-3.3500 Y0.4000  
G82 X-3.4500 Y0.2500  
G82 X-3.5500 Y0.4000  
G82 X-3.5200 Y0.6700  
G82 X-3.5950 Y0.7200  
G82 X-3.5200 Y0.7700  
G82 X-3.5500 Y0.9500  
G82 X-3.4500 Y0.9500  
G82 X-3.6500 Y0.9500  
G82 X-3.6500 Y1.1500  
G82 X-3.5100 Y1.1500  
G82 X-3.2700 Y1.0500  
G82 X-3.2100 Y1.1500  
G82 X-3.1000 Y1.2500  
G82 X-3.1400 Y1.4000  
G82 X-3.1000 Y1.5100  
G82 X-2.9400 Y1.4000  
G82 X-2.7000 Y1.2500  
G82 X-2.5500 Y1.2500  
G82 X-2.5600 Y1.1200  
G82 X-2.4200 Y1.1500  
G82 X-2.2700 Y1.2600  
G82 X-2.2500 Y0.8000  
G82 X-1.9500 Y0.4000  
G82 X-1.9500 Y0.2700  
G82 X-1.7100 Y0.5300  
G82 X-1.6100 Y0.5300  
G82 X-1.4500 Y0.4500  
G82 X-1.2700 Y0.4700  
G82 X-1.3000 Y0.6100  
G82 X-0.9900 Y0.5400  
G82 X-1.0100 Y0.8200  
G82 X-0.8500 Y0.9000  
G82 X-0.7000 Y0.9000  
G82 X-0.7000 Y1.1000  
G82 X-0.8500 Y1.1000  
G82 X-0.8500 Y1.2500  
G82 X-1.2000 Y1.0500  
G82 X-1.4800 Y1.4800  
G82 X-1.8500 Y1.9000  
G82 X-1.9500 Y1.9200  
G82 X-2.5900 Y1.6600  
G82 X-3.1000 Y2.0750  
G82 X-3.1500 Y2.1500  
G82 X-3.0500 Y2.1500  
G82 X-3.2000 Y1.9500  
G82 X-3.2700 Y0.8500  
G82 X-3.2500 Y0.6500  
G82 X-3.3000 Y0.5750  
G82 X-3.3500 Y0.6500  
G82 X-2.3100 Y0.0700  
G82 X-1.4500 Y0.2500  
G82 X-1.2700 Y0.2700  
G82 X-0.9900 Y0.2400  
G82 X-1.2900 Y2.2900  
M05
G00 Z1.5000  
G00 X0.0000  Y0.0000  
M06 T03  ; 0.0394  
G01 Z0.0000  F20    
M06 
G00 Z0.0500  
M03
G04 P0.000000
G82 X-0.9500 Y2.2000  Z-0.0750 F20    R0.0500  P0.020000
G82 X-0.9500 Y2.3000  
M05
G00 Z1.5000  
G00 X0.0000  Y0.0000  
M06 T04  ; 0.0400  
G01 Z0.0000  F20    
M06 
G00 Z0.0500  
M03
G04 P0.000000
G82 X-3.5000 Y1.6000  Z-0.0750 F20    R0.0500  P0.020000
G82 X-3.5000 Y1.7000  
G82 X-3.5000 Y1.8000  
G82 X-3.5000 Y1.9000  
G82 X-3.5000 Y2.0000  
G82 X-3.5000 Y2.1000  
G82 X-3.5000 Y2.2000  
G82 X-3.5000 Y2.3000  
G82 X-3.6000 Y2.3000  
G82 X-3.6000 Y2.2000  
G82 X-3.6000 Y2.1000  
G82 X-3.6000 Y2.0000  
G82 X-3.6000 Y1.9000  
G82 X-3.6000 Y1.8000  
G82 X-3.6000 Y1.7000  
G82 X-3.6000 Y1.6000  
M05
G00 Z1.5000  
G00 X0.0000  Y0.0000  
M06 T05  ; 0.0440  
G01 Z0.0000  F20    
M06 
G00 Z0.0500  
M03
G04 P0.000000
G82 X-3.5500 Y0.2500  Z-0.0750 F20    R0.0500  P0.020000
G82 X-3.6500 Y1.2400  
M05
G00 Z1.5000  
G00 X0.0000  Y0.0000  
M06 T06  ; 0.0472  
G01 Z0.0000  F20    
M06 
G00 Z0.0500  
M03
G04 P0.000000
G82 X-0.1500 Y1.2031  Z-0.0750 F20    R0.0500  P0.020000
G82 X-0.1500 Y1.4000  
G82 X-0.1500 Y1.5969  
M05
G00 Z1.5000  
G00 X0.0000  Y0.0000  
M06 T07  ; 0.0512  
G01 Z0.0000  F20    
M06 
G00 Z0.0500  
M03
G04 P0.000000
G82 X-0.0980 Y2.1630  Z-0.0750 F20    R0.0500  P0.020000
G82 X-0.0984 Y2.1969  
G82 X-0.0980 Y2.2300  
G82 X-0.4980 Y1.9920  
G82 X-0.5315 Y1.9921  
G82 X-0.5650 Y1.9920  
G82 X-0.6180 Y2.1640  
G82 X-0.6181 Y2.1969  
G82 X-0.6180 Y2.2300  
M05
G00 Z1.5000  
G00 X0.0000  Y0.0000  
M06 T08  ; 0.0540  
G01 Z0.0000  F20    
M06 
G00 Z0.0500  
M03
G04 P0.000000
G82 X0.0000  Y0.4016  Z-0.0750 F20    R0.0500  P0.020000
G82 X0.0000  Y0.5984  
G82 X-0.5650 Y0.5950  
G82 X-0.7146 Y0.5950  
G82 X-0.8642 Y0.5950  
G82 X-0.8642 Y0.4050  
G82 X-0.7146 Y0.4050  
G82 X-0.5650 Y0.4050  
G82 X-0.5650 Y0.2150  
G82 X-0.7146 Y0.2150  
G82 X-0.8642 Y0.2150  
G82 X-0.8642 Y0.7850  
G82 X-0.7146 Y0.7850  
G82 X-0.5650 Y0.7850  
T01 
G00 Z0.2500  
M05
M02
