(/Applications/pcbgcode.repo/pcb-gcode.ulp)
(Copyright 2005 - 2012 by John Johnson)
(See readme.txt for licensing terms.)
(This file generated from the board:)
(.../eurorack/808_rimshot/eagle/808_rs.brd)
(Current profile is .../pcbgcode.repo/profiles/mach.pp  )
(This file generated 5/8/16 9:44 PM)
(Settings from pcb-machine.h)
(spindle on time = 0.0000)
(  Tool Size)
(0.0030  )
(spindle speed = 30000.0000)
(tool change at 0.0000  0.0000  1.5000  )
(feed rate xy = F20    )
(feed rate z  = F10    )
(Z Axis Settings)
(  High     Up        Down     Drill)
(0.2500  	0.0500  	-0.0035 	-0.0750 )
(Settings from pcb-defaults.h)
(isolate min = 0.0060)
(isolate max = 0.0200)
(isolate step = 0.0015)
(Generated bottom outlines, bottom drill, )
(Unit of measure: inch)
(Inch Mode)
G20
(Absolute Coordinates)
G90
S30000
G00 Z0.2500  
G00 X0.0000  Y0.0000  
M03
G04 P0.000000
G00 Z0.0500  
G00 X0.0044  Y0.3350  
G01 Z-0.0035 F10    
G01 X0.0130  Y0.3362  F20    
G01 X0.0214  Y0.3384  
G01 X0.0295  Y0.3418  
G01 X0.0371  Y0.3461  
G01 X0.0440  Y0.3514  
G01 X0.0501  Y0.3576  
G01 X0.0555  Y0.3645  
G01 X0.0598  Y0.3721  
G01 X0.0632  Y0.3801  
G01 X0.0654  Y0.3886  
G01 X0.0666  Y0.3972  
G01 X0.0666  Y0.4059  
G01 X0.0654  Y0.4146  
G01 X0.0632  Y0.4230  
G01 X0.0598  Y0.4311  
G01 X0.0555  Y0.4386  
G01 X0.0501  Y0.4456  
G01 X0.0440  Y0.4517  
G01 X0.0371  Y0.4570  
G01 X0.0295  Y0.4614  
G01 X0.0214  Y0.4647  
G01 X0.0130  Y0.4670  
G01 X0.0044  Y0.4681  
G01 X-0.0044 Y0.4681  
G01 X-0.0130 Y0.4670  
G01 X-0.0214 Y0.4647  
G01 X-0.0295 Y0.4614  
G01 X-0.0371 Y0.4570  
G01 X-0.0440 Y0.4517  
G01 X-0.0501 Y0.4456  
G01 X-0.0555 Y0.4386  
G01 X-0.0598 Y0.4311  
G01 X-0.0632 Y0.4230  
G01 X-0.0654 Y0.4146  
G01 X-0.0666 Y0.4059  
G01 X-0.0666 Y0.3972  
G01 X-0.0654 Y0.3886  
G01 X-0.0632 Y0.3801  
G01 X-0.0598 Y0.3721  
G01 X-0.0555 Y0.3645  
G01 X-0.0501 Y0.3576  
G01 X-0.0440 Y0.3514  
G01 X-0.0371 Y0.3461  
G01 X-0.0295 Y0.3418  
G01 X-0.0214 Y0.3384  
G01 X-0.0130 Y0.3362  
G01 X-0.0044 Y0.3350  
G01 X0.0044  Y0.3350  
G00 Z0.0500  
G00 X0.0044  Y0.5319  
G01 Z-0.0035 F10    
G01 X0.0130  Y0.5330  F20    
G01 X0.0214  Y0.5353  
G01 X0.0295  Y0.5386  
G01 X0.0371  Y0.5430  
G01 X0.0440  Y0.5483  
G01 X0.0501  Y0.5544  
G01 X0.0555  Y0.5614  
G01 X0.0598  Y0.5689  
G01 X0.0632  Y0.5770  
G01 X0.0654  Y0.5854  
G01 X0.0666  Y0.5941  
G01 X0.0666  Y0.6028  
G01 X0.0654  Y0.6114  
G01 X0.0632  Y0.6199  
G01 X0.0598  Y0.6279  
G01 X0.0555  Y0.6355  
G01 X0.0501  Y0.6424  
G01 X0.0440  Y0.6486  
G01 X0.0371  Y0.6539  
G01 X0.0295  Y0.6582  
G01 X0.0214  Y0.6616  
G01 X0.0130  Y0.6638  
G01 X0.0044  Y0.6650  
G01 X-0.0044 Y0.6650  
G01 X-0.0130 Y0.6638  
G01 X-0.0214 Y0.6616  
G01 X-0.0295 Y0.6582  
G01 X-0.0371 Y0.6539  
G01 X-0.0440 Y0.6486  
G01 X-0.0501 Y0.6424  
G01 X-0.0555 Y0.6355  
G01 X-0.0598 Y0.6279  
G01 X-0.0632 Y0.6199  
G01 X-0.0654 Y0.6114  
G01 X-0.0666 Y0.6028  
G01 X-0.0666 Y0.5941  
G01 X-0.0654 Y0.5854  
G01 X-0.0632 Y0.5770  
G01 X-0.0598 Y0.5689  
G01 X-0.0555 Y0.5614  
G01 X-0.0501 Y0.5544  
G01 X-0.0440 Y0.5483  
G01 X-0.0371 Y0.5430  
G01 X-0.0295 Y0.5386  
G01 X-0.0214 Y0.5353  
G01 X-0.0130 Y0.5330  
G01 X-0.0044 Y0.5319  
G01 X0.0044  Y0.5319  
G00 Z0.0500  
G00 X-0.3625 Y0.6494  
G01 Z-0.0035 F10    
G01 X-0.3624 Y0.6515  F20    
G01 X-0.3625 Y0.6521  
G01 X-0.3625 Y0.6527  
G01 X-0.3629 Y0.6548  
G01 X-0.3632 Y0.6569  
G01 X-0.3634 Y0.6574  
G01 X-0.3636 Y0.6580  
G01 X-0.3644 Y0.6600  
G01 X-0.3651 Y0.6620  
G01 X-0.3654 Y0.6625  
G01 X-0.3656 Y0.6630  
G01 X-0.3668 Y0.6648  
G01 X-0.3679 Y0.6666  
G01 X-0.3683 Y0.6670  
G01 X-0.3686 Y0.6675  
G01 X-0.3701 Y0.6690  
G01 X-0.4788 Y0.7875  
G01 X-0.4795 Y0.7885  
G01 X-0.4806 Y0.7895  
G01 X-0.4816 Y0.7906  
G01 X-0.4826 Y0.7913  
G01 X-0.4835 Y0.7922  
G01 X-0.4848 Y0.7929  
G01 X-0.4859 Y0.7938  
G01 X-0.4871 Y0.7943  
G01 X-0.5132 Y0.8100  
G01 X-0.5158 Y0.8151  
G01 X-0.5211 Y0.8225  
G01 X-0.5275 Y0.8289  
G01 X-0.5349 Y0.8342  
G01 X-0.5429 Y0.8383  
G01 X-0.5515 Y0.8411  
G01 X-0.5605 Y0.8425  
G01 X-0.5695 Y0.8425  
G01 X-0.5785 Y0.8411  
G01 X-0.5871 Y0.8383  
G01 X-0.5951 Y0.8342  
G01 X-0.6025 Y0.8289  
G01 X-0.6089 Y0.8225  
G01 X-0.6142 Y0.8151  
G01 X-0.6183 Y0.8071  
G01 X-0.6211 Y0.7985  
G01 X-0.6225 Y0.7895  
G01 X-0.6225 Y0.7805  
G01 X-0.6211 Y0.7715  
G01 X-0.6183 Y0.7629  
G01 X-0.6142 Y0.7549  
G01 X-0.6089 Y0.7475  
G01 X-0.6025 Y0.7411  
G01 X-0.5951 Y0.7358  
G01 X-0.5871 Y0.7317  
G01 X-0.5785 Y0.7289  
G01 X-0.5695 Y0.7275  
G01 X-0.5605 Y0.7275  
G01 X-0.5515 Y0.7289  
G01 X-0.5429 Y0.7317  
G01 X-0.5349 Y0.7358  
G01 X-0.5275 Y0.7411  
G01 X-0.5211 Y0.7475  
G01 X-0.5196 Y0.7497  
G01 X-0.5176 Y0.7485  
G01 X-0.4175 Y0.6393  
G01 X-0.4175 Y0.1614  
G01 X-0.4913 Y0.0876  
G01 X-2.2900 Y0.0974  
G01 X-2.2961 Y0.1035  
G01 X-2.3239 Y0.1035  
G01 X-2.3435 Y0.0839  
G01 X-2.3435 Y0.0561  
G01 X-2.3239 Y0.0365  
G01 X-2.2961 Y0.0365  
G01 X-2.2902 Y0.0424  
G01 X-0.4828 Y0.0325  
G01 X-0.4801 Y0.0325  
G01 X-0.4774 Y0.0325  
G01 X-0.4773 Y0.0325  
G01 X-0.4747 Y0.0330  
G01 X-0.4721 Y0.0335  
G01 X-0.4720 Y0.0336  
G01 X-0.4696 Y0.0346  
G01 X-0.4671 Y0.0356  
G01 X-0.4670 Y0.0356  
G01 X-0.4648 Y0.0371  
G01 X-0.4626 Y0.0385  
G01 X-0.4625 Y0.0386  
G01 X-0.4606 Y0.0405  
G01 X-0.4587 Y0.0424  
G01 X-0.3725 Y0.1286  
G01 X-0.3686 Y0.1325  
G01 X-0.3656 Y0.1370  
G01 X-0.3636 Y0.1420  
G01 X-0.3625 Y0.1473  
G01 X-0.3625 Y0.6494  
G00 Z0.0500  
G00 X-0.5275 Y0.6389  
G01 Z-0.0035 F10    
G01 X-0.5349 Y0.6442  F20    
G01 X-0.5429 Y0.6483  
G01 X-0.5515 Y0.6511  
G01 X-0.5605 Y0.6525  
G01 X-0.5695 Y0.6525  
G01 X-0.5785 Y0.6511  
G01 X-0.5871 Y0.6483  
G01 X-0.5951 Y0.6442  
G01 X-0.6025 Y0.6389  
G01 X-0.6089 Y0.6325  
G01 X-0.6142 Y0.6251  
G01 X-0.6183 Y0.6171  
G01 X-0.6211 Y0.6085  
G01 X-0.6225 Y0.5995  
G01 X-0.6225 Y0.5905  
G01 X-0.6211 Y0.5815  
G01 X-0.6183 Y0.5729  
G01 X-0.6142 Y0.5649  
G01 X-0.6089 Y0.5575  
G01 X-0.6025 Y0.5511  
G01 X-0.5951 Y0.5458  
G01 X-0.5871 Y0.5417  
G01 X-0.5785 Y0.5389  
G01 X-0.5695 Y0.5375  
G01 X-0.5605 Y0.5375  
G01 X-0.5515 Y0.5389  
G01 X-0.5429 Y0.5417  
G01 X-0.5349 Y0.5458  
G01 X-0.5275 Y0.5511  
G01 X-0.5211 Y0.5575  
G01 X-0.5158 Y0.5649  
G01 X-0.5117 Y0.5729  
G01 X-0.5089 Y0.5815  
G01 X-0.5075 Y0.5905  
G01 X-0.5075 Y0.5995  
G01 X-0.5089 Y0.6085  
G01 X-0.5117 Y0.6171  
G01 X-0.5158 Y0.6251  
G01 X-0.5211 Y0.6325  
G01 X-0.5275 Y0.6389  
G00 Z0.0500  
G00 X-0.6771 Y0.6389  
G01 Z-0.0035 F10    
G01 X-0.6845 Y0.6442  F20    
G01 X-0.6925 Y0.6483  
G01 X-0.7011 Y0.6511  
G01 X-0.7101 Y0.6525  
G01 X-0.7191 Y0.6525  
G01 X-0.7281 Y0.6511  
G01 X-0.7367 Y0.6483  
G01 X-0.7447 Y0.6442  
G01 X-0.7521 Y0.6389  
G01 X-0.7585 Y0.6325  
G01 X-0.7638 Y0.6251  
G01 X-0.7679 Y0.6171  
G01 X-0.7707 Y0.6085  
G01 X-0.7721 Y0.5995  
G01 X-0.7721 Y0.5905  
G01 X-0.7707 Y0.5815  
G01 X-0.7679 Y0.5729  
G01 X-0.7638 Y0.5649  
G01 X-0.7585 Y0.5575  
G01 X-0.7521 Y0.5511  
G01 X-0.7447 Y0.5458  
G01 X-0.7367 Y0.5417  
G01 X-0.7281 Y0.5389  
G01 X-0.7191 Y0.5375  
G01 X-0.7101 Y0.5375  
G01 X-0.7011 Y0.5389  
G01 X-0.6925 Y0.5417  
G01 X-0.6845 Y0.5458  
G01 X-0.6771 Y0.5511  
G01 X-0.6707 Y0.5575  
G01 X-0.6654 Y0.5649  
G01 X-0.6613 Y0.5729  
G01 X-0.6585 Y0.5815  
G01 X-0.6571 Y0.5905  
G01 X-0.6571 Y0.5995  
G01 X-0.6585 Y0.6085  
G01 X-0.6613 Y0.6171  
G01 X-0.6654 Y0.6251  
G01 X-0.6707 Y0.6325  
G01 X-0.6771 Y0.6389  
G00 Z0.0500  
G00 X-0.6771 Y0.7411  
G01 Z-0.0035 F10    
G01 X-0.6707 Y0.7475  F20    
G01 X-0.6654 Y0.7549  
G01 X-0.6613 Y0.7629  
G01 X-0.6585 Y0.7715  
G01 X-0.6571 Y0.7805  
G01 X-0.6571 Y0.7895  
G01 X-0.6585 Y0.7985  
G01 X-0.6613 Y0.8071  
G01 X-0.6654 Y0.8151  
G01 X-0.6707 Y0.8225  
G01 X-0.6765 Y0.8282  
G01 X-0.6765 Y0.8761  
G01 X-0.6665 Y0.8861  
G01 X-0.6665 Y0.9139  
G01 X-0.6861 Y0.9335  
G01 X-0.7139 Y0.9335  
G01 X-0.7335 Y0.9139  
G01 X-0.7335 Y0.8861  
G01 X-0.7235 Y0.8761  
G01 X-0.7235 Y0.8418  
G01 X-0.7281 Y0.8411  
G01 X-0.7367 Y0.8383  
G01 X-0.7447 Y0.8342  
G01 X-0.7521 Y0.8289  
G01 X-0.7585 Y0.8225  
G01 X-0.7638 Y0.8151  
G01 X-0.7679 Y0.8071  
G01 X-0.7707 Y0.7985  
G01 X-0.7721 Y0.7895  
G01 X-0.7721 Y0.7805  
G01 X-0.7707 Y0.7715  
G01 X-0.7679 Y0.7629  
G01 X-0.7638 Y0.7549  
G01 X-0.7585 Y0.7475  
G01 X-0.7521 Y0.7411  
G01 X-0.7447 Y0.7358  
G01 X-0.7367 Y0.7317  
G01 X-0.7281 Y0.7289  
G01 X-0.7191 Y0.7275  
G01 X-0.7101 Y0.7275  
G01 X-0.7011 Y0.7289  
G01 X-0.6925 Y0.7317  
G01 X-0.6845 Y0.7358  
G01 X-0.6771 Y0.7411  
G00 Z0.0500  
G00 X-0.8204 Y0.7475  
G01 Z-0.0035 F10    
G01 X-0.8150 Y0.7549  F20    
G01 X-0.8109 Y0.7629  
G01 X-0.8081 Y0.7715  
G01 X-0.8067 Y0.7805  
G01 X-0.8067 Y0.7895  
G01 X-0.8081 Y0.7985  
G01 X-0.8109 Y0.8071  
G01 X-0.8150 Y0.8151  
G01 X-0.8204 Y0.8225  
G01 X-0.8265 Y0.8286  
G01 X-0.8265 Y0.8761  
G01 X-0.8165 Y0.8861  
G01 X-0.8165 Y0.9139  
G01 X-0.8361 Y0.9335  
G01 X-0.8639 Y0.9335  
G01 X-0.8835 Y0.9139  
G01 X-0.8835 Y0.8861  
G01 X-0.8735 Y0.8761  
G01 X-0.8735 Y0.8417  
G01 X-0.8777 Y0.8411  
G01 X-0.8863 Y0.8383  
G01 X-0.8943 Y0.8342  
G01 X-0.9017 Y0.8289  
G01 X-0.9081 Y0.8225  
G01 X-0.9134 Y0.8151  
G01 X-0.9175 Y0.8071  
G01 X-0.9203 Y0.7985  
G01 X-0.9217 Y0.7895  
G01 X-0.9217 Y0.7805  
G01 X-0.9203 Y0.7715  
G01 X-0.9175 Y0.7629  
G01 X-0.9134 Y0.7549  
G01 X-0.9081 Y0.7475  
G01 X-0.9017 Y0.7411  
G01 X-0.8943 Y0.7358  
G01 X-0.8863 Y0.7317  
G01 X-0.8777 Y0.7289  
G01 X-0.8687 Y0.7275  
G01 X-0.8597 Y0.7275  
G01 X-0.8507 Y0.7289  
G01 X-0.8421 Y0.7317  
G01 X-0.8341 Y0.7358  
G01 X-0.8268 Y0.7411  
G01 X-0.8204 Y0.7475  
G00 Z0.0500  
G00 X-0.8268 Y0.6389  
G01 Z-0.0035 F10    
G01 X-0.8341 Y0.6442  F20    
G01 X-0.8421 Y0.6483  
G01 X-0.8507 Y0.6511  
G01 X-0.8597 Y0.6525  
G01 X-0.8687 Y0.6525  
G01 X-0.8777 Y0.6511  
G01 X-0.8863 Y0.6483  
G01 X-0.8943 Y0.6442  
G01 X-0.9017 Y0.6389  
G01 X-0.9081 Y0.6325  
G01 X-0.9134 Y0.6251  
G01 X-0.9175 Y0.6171  
G01 X-0.9203 Y0.6085  
G01 X-0.9217 Y0.5995  
G01 X-0.9217 Y0.5905  
G01 X-0.9203 Y0.5815  
G01 X-0.9175 Y0.5729  
G01 X-0.9134 Y0.5649  
G01 X-0.9081 Y0.5575  
G01 X-0.9017 Y0.5511  
G01 X-0.8943 Y0.5458  
G01 X-0.8863 Y0.5417  
G01 X-0.8777 Y0.5389  
G01 X-0.8687 Y0.5375  
G01 X-0.8597 Y0.5375  
G01 X-0.8507 Y0.5389  
G01 X-0.8421 Y0.5417  
G01 X-0.8341 Y0.5458  
G01 X-0.8268 Y0.5511  
G01 X-0.8204 Y0.5575  
G01 X-0.8150 Y0.5649  
G01 X-0.8109 Y0.5729  
G01 X-0.8081 Y0.5815  
G01 X-0.8067 Y0.5905  
G01 X-0.8067 Y0.5995  
G01 X-0.8081 Y0.6085  
G01 X-0.8109 Y0.6171  
G01 X-0.8150 Y0.6251  
G01 X-0.8204 Y0.6325  
G01 X-0.8268 Y0.6389  
G00 Z0.0500  
G00 X-0.8268 Y0.4489  
G01 Z-0.0035 F10    
G01 X-0.8341 Y0.4542  F20    
G01 X-0.8421 Y0.4583  
G01 X-0.8507 Y0.4611  
G01 X-0.8597 Y0.4625  
G01 X-0.8687 Y0.4625  
G01 X-0.8777 Y0.4611  
G01 X-0.8863 Y0.4583  
G01 X-0.8943 Y0.4542  
G01 X-0.9017 Y0.4489  
G01 X-0.9081 Y0.4425  
G01 X-0.9134 Y0.4351  
G01 X-0.9175 Y0.4271  
G01 X-0.9203 Y0.4185  
G01 X-0.9217 Y0.4095  
G01 X-0.9217 Y0.4005  
G01 X-0.9203 Y0.3915  
G01 X-0.9175 Y0.3829  
G01 X-0.9134 Y0.3749  
G01 X-0.9081 Y0.3675  
G01 X-0.9017 Y0.3611  
G01 X-0.8943 Y0.3558  
G01 X-0.8863 Y0.3517  
G01 X-0.8777 Y0.3489  
G01 X-0.8687 Y0.3475  
G01 X-0.8597 Y0.3475  
G01 X-0.8507 Y0.3489  
G01 X-0.8421 Y0.3517  
G01 X-0.8341 Y0.3558  
G01 X-0.8268 Y0.3611  
G01 X-0.8204 Y0.3675  
G01 X-0.8150 Y0.3749  
G01 X-0.8109 Y0.3829  
G01 X-0.8081 Y0.3915  
G01 X-0.8067 Y0.4005  
G01 X-0.8067 Y0.4095  
G01 X-0.8081 Y0.4185  
G01 X-0.8109 Y0.4271  
G01 X-0.8150 Y0.4351  
G01 X-0.8204 Y0.4425  
G01 X-0.8268 Y0.4489  
G00 Z0.0500  
G00 X-0.7585 Y0.4425  
G01 Z-0.0035 F10    
G01 X-0.7638 Y0.4351  F20    
G01 X-0.7679 Y0.4271  
G01 X-0.7707 Y0.4185  
G01 X-0.7721 Y0.4095  
G01 X-0.7721 Y0.4005  
G01 X-0.7707 Y0.3915  
G01 X-0.7679 Y0.3829  
G01 X-0.7638 Y0.3749  
G01 X-0.7585 Y0.3675  
G01 X-0.7521 Y0.3611  
G01 X-0.7447 Y0.3558  
G01 X-0.7367 Y0.3517  
G01 X-0.7281 Y0.3489  
G01 X-0.7191 Y0.3475  
G01 X-0.7101 Y0.3475  
G01 X-0.7011 Y0.3489  
G01 X-0.6925 Y0.3517  
G01 X-0.6845 Y0.3558  
G01 X-0.6771 Y0.3611  
G01 X-0.6707 Y0.3675  
G01 X-0.6654 Y0.3749  
G01 X-0.6613 Y0.3829  
G01 X-0.6585 Y0.3915  
G01 X-0.6571 Y0.4005  
G01 X-0.6571 Y0.4095  
G01 X-0.6585 Y0.4185  
G01 X-0.6613 Y0.4271  
G01 X-0.6654 Y0.4351  
G01 X-0.6707 Y0.4425  
G01 X-0.6771 Y0.4489  
G01 X-0.6845 Y0.4542  
G01 X-0.6925 Y0.4583  
G01 X-0.7011 Y0.4611  
G01 X-0.7101 Y0.4625  
G01 X-0.7191 Y0.4625  
G01 X-0.7281 Y0.4611  
G01 X-0.7367 Y0.4583  
G01 X-0.7447 Y0.4542  
G01 X-0.7521 Y0.4489  
G01 X-0.7585 Y0.4425  
G00 Z0.0500  
G00 X-0.6089 Y0.4425  
G01 Z-0.0035 F10    
G01 X-0.6142 Y0.4351  F20    
G01 X-0.6183 Y0.4271  
G01 X-0.6211 Y0.4185  
G01 X-0.6225 Y0.4095  
G01 X-0.6225 Y0.4005  
G01 X-0.6211 Y0.3915  
G01 X-0.6183 Y0.3829  
G01 X-0.6142 Y0.3749  
G01 X-0.6089 Y0.3675  
G01 X-0.6025 Y0.3611  
G01 X-0.5951 Y0.3558  
G01 X-0.5871 Y0.3517  
G01 X-0.5785 Y0.3489  
G01 X-0.5695 Y0.3475  
G01 X-0.5605 Y0.3475  
G01 X-0.5515 Y0.3489  
G01 X-0.5429 Y0.3517  
G01 X-0.5349 Y0.3558  
G01 X-0.5275 Y0.3611  
G01 X-0.5211 Y0.3675  
G01 X-0.5158 Y0.3749  
G01 X-0.5117 Y0.3829  
G01 X-0.5089 Y0.3915  
G01 X-0.5075 Y0.4005  
G01 X-0.5075 Y0.4095  
G01 X-0.5089 Y0.4185  
G01 X-0.5117 Y0.4271  
G01 X-0.5158 Y0.4351  
G01 X-0.5211 Y0.4425  
G01 X-0.5275 Y0.4489  
G01 X-0.5349 Y0.4542  
G01 X-0.5429 Y0.4583  
G01 X-0.5515 Y0.4611  
G01 X-0.5605 Y0.4625  
G01 X-0.5695 Y0.4625  
G01 X-0.5785 Y0.4611  
G01 X-0.5871 Y0.4583  
G01 X-0.5951 Y0.4542  
G01 X-0.6025 Y0.4489  
G01 X-0.6089 Y0.4425  
G00 Z0.0500  
G00 X-0.6230 Y0.3264  
G01 Z-0.0035 F10    
G01 X-0.6240 Y0.3273  F20    
G01 X-0.6250 Y0.3283  
G01 X-0.6258 Y0.3288  
G01 X-0.6265 Y0.3294  
G01 X-0.6277 Y0.3301  
G01 X-0.6289 Y0.3308  
G01 X-0.6297 Y0.3312  
G01 X-0.6306 Y0.3316  
G01 X-0.6319 Y0.3321  
G01 X-0.6331 Y0.3326  
G01 X-0.6341 Y0.3328  
G01 X-0.6350 Y0.3331  
G01 X-0.6363 Y0.3332  
G01 X-0.6377 Y0.3335  
G01 X-0.6386 Y0.3335  
G01 X-0.6396 Y0.3336  
G01 X-0.6409 Y0.3335  
G01 X-0.8690 Y0.3335  
G01 X-1.0484 Y0.3685  
G01 X-1.1166 Y1.0169  
G01 X-1.1167 Y1.0187  
G01 X-1.1168 Y1.0192  
G01 X-1.1169 Y1.0198  
G01 X-1.1174 Y1.0215  
G01 X-1.1179 Y1.0232  
G01 X-1.1181 Y1.0237  
G01 X-1.1182 Y1.0242  
G01 X-1.1191 Y1.0258  
G01 X-1.1199 Y1.0274  
G01 X-1.1202 Y1.0278  
G01 X-1.1205 Y1.0282  
G01 X-1.1216 Y1.0296  
G01 X-1.1227 Y1.0311  
G01 X-1.1231 Y1.0314  
G01 X-1.1234 Y1.0318  
G01 X-1.1248 Y1.0329  
G01 X-1.1262 Y1.0341  
G01 X-1.1266 Y1.0344  
G01 X-1.1270 Y1.0347  
G01 X-1.1286 Y1.0356  
G01 X-1.1665 Y1.0577  
G01 X-1.1665 Y1.0639  
G01 X-1.1861 Y1.0835  
G01 X-1.2139 Y1.0835  
G01 X-1.2335 Y1.0639  
G01 X-1.2335 Y1.0361  
G01 X-1.2139 Y1.0165  
G01 X-1.1892 Y1.0165  
G01 X-1.1621 Y1.0007  
G01 X-1.0935 Y0.3475  
G01 X-1.0935 Y0.3463  
G01 X-1.0933 Y0.3452  
G01 X-1.0931 Y0.3440  
G01 X-1.0928 Y0.3429  
G01 X-1.0926 Y0.3418  
G01 X-1.0921 Y0.3407  
G01 X-1.0918 Y0.3396  
G01 X-1.0912 Y0.3386  
G01 X-1.0908 Y0.3375  
G01 X-1.0901 Y0.3366  
G01 X-1.0895 Y0.3355  
G01 X-1.0888 Y0.3346  
G01 X-1.0882 Y0.3337  
G01 X-1.0874 Y0.3329  
G01 X-1.0866 Y0.3319  
G01 X-1.0857 Y0.3312  
G01 X-1.0849 Y0.3304  
G01 X-1.0839 Y0.3298  
G01 X-1.0830 Y0.3290  
G01 X-1.0820 Y0.3285  
G01 X-1.0811 Y0.3279  
G01 X-1.0799 Y0.3274  
G01 X-1.0789 Y0.3269  
G01 X-1.0778 Y0.3266  
G01 X-1.0768 Y0.3261  
G01 X-1.0756 Y0.3259  
G01 X-1.0745 Y0.3256  
G01 X-1.0733 Y0.3255  
G01 X-0.8758 Y0.2869  
G01 X-0.8736 Y0.2865  
G01 X-0.8712 Y0.2865  
G01 X-0.6514 Y0.2865  
G01 X-0.6160 Y0.2416  
G01 X-0.6183 Y0.2371  
G01 X-0.6211 Y0.2285  
G01 X-0.6225 Y0.2195  
G01 X-0.6225 Y0.2105  
G01 X-0.6211 Y0.2015  
G01 X-0.6183 Y0.1929  
G01 X-0.6142 Y0.1849  
G01 X-0.6089 Y0.1775  
G01 X-0.6025 Y0.1711  
G01 X-0.5951 Y0.1658  
G01 X-0.5871 Y0.1617  
G01 X-0.5785 Y0.1589  
G01 X-0.5695 Y0.1575  
G01 X-0.5605 Y0.1575  
G01 X-0.5515 Y0.1589  
G01 X-0.5429 Y0.1617  
G01 X-0.5349 Y0.1658  
G01 X-0.5275 Y0.1711  
G01 X-0.5211 Y0.1775  
G01 X-0.5158 Y0.1849  
G01 X-0.5117 Y0.1929  
G01 X-0.5089 Y0.2015  
G01 X-0.5075 Y0.2105  
G01 X-0.5075 Y0.2195  
G01 X-0.5089 Y0.2285  
G01 X-0.5117 Y0.2371  
G01 X-0.5158 Y0.2451  
G01 X-0.5211 Y0.2525  
G01 X-0.5275 Y0.2589  
G01 X-0.5349 Y0.2642  
G01 X-0.5429 Y0.2683  
G01 X-0.5515 Y0.2711  
G01 X-0.5605 Y0.2725  
G01 X-0.5695 Y0.2725  
G01 X-0.5785 Y0.2711  
G01 X-0.5792 Y0.2709  
G01 X-0.6210 Y0.3238  
G01 X-0.6217 Y0.3250  
G01 X-0.6224 Y0.3256  
G01 X-0.6230 Y0.3264  
G00 Z0.0500  
G00 X-0.6771 Y0.2589  
G01 Z-0.0035 F10    
G01 X-0.6845 Y0.2642  F20    
G01 X-0.6925 Y0.2683  
G01 X-0.7011 Y0.2711  
G01 X-0.7101 Y0.2725  
G01 X-0.7191 Y0.2725  
G01 X-0.7281 Y0.2711  
G01 X-0.7367 Y0.2683  
G01 X-0.7447 Y0.2642  
G01 X-0.7521 Y0.2589  
G01 X-0.7585 Y0.2525  
G01 X-0.7638 Y0.2451  
G01 X-0.7679 Y0.2371  
G01 X-0.7707 Y0.2285  
G01 X-0.7721 Y0.2195  
G01 X-0.7721 Y0.2105  
G01 X-0.7707 Y0.2015  
G01 X-0.7679 Y0.1929  
G01 X-0.7638 Y0.1849  
G01 X-0.7597 Y0.1792  
G01 X-0.7914 Y0.1475  
G01 X-1.0886 Y0.1475  
G01 X-1.1135 Y0.1724  
G01 X-1.1325 Y0.3918  
G01 X-1.1326 Y0.3938  
G01 X-1.1328 Y0.3944  
G01 X-1.1328 Y0.3951  
G01 X-1.1334 Y0.3971  
G01 X-1.2025 Y0.6833  
G01 X-1.2025 Y0.9493  
G01 X-1.2024 Y0.9512  
G01 X-1.2025 Y0.9520  
G01 X-1.2025 Y0.9527  
G01 X-1.2029 Y0.9546  
G01 X-1.2032 Y0.9566  
G01 X-1.2034 Y0.9573  
G01 X-1.2036 Y0.9580  
G01 X-1.2043 Y0.9598  
G01 X-1.2050 Y0.9617  
G01 X-1.2053 Y0.9623  
G01 X-1.2056 Y0.9630  
G01 X-1.2067 Y0.9647  
G01 X-1.2077 Y0.9663  
G01 X-1.2082 Y0.9669  
G01 X-1.2086 Y0.9675  
G01 X-1.2100 Y0.9689  
G01 X-1.2113 Y0.9704  
G01 X-1.2119 Y0.9708  
G01 X-1.2125 Y0.9714  
G01 X-1.2141 Y0.9724  
G01 X-1.2425 Y0.9937  
G01 X-1.2425 Y1.2874  
G01 X-1.2424 Y1.2887  
G01 X-1.2425 Y1.2901  
G01 X-1.2425 Y1.2915  
G01 X-1.2428 Y1.2928  
G01 X-1.2429 Y1.2941  
G01 X-1.2433 Y1.2954  
G01 X-1.2436 Y1.2968  
G01 X-1.2441 Y1.2980  
G01 X-1.2445 Y1.2993  
G01 X-1.2451 Y1.3005  
G01 X-1.2456 Y1.3018  
G01 X-1.2464 Y1.3029  
G01 X-1.2470 Y1.3041  
G01 X-1.2479 Y1.3051  
G01 X-1.2486 Y1.3063  
G01 X-1.2496 Y1.3072  
G01 X-1.2954 Y1.3633  
G01 X-1.2996 Y1.3667  
G01 X-1.3044 Y1.3693  
G01 X-1.3096 Y1.3708  
G01 X-1.3150 Y1.3714  
G01 X-1.3204 Y1.3709  
G01 X-1.3255 Y1.3693  
G01 X-1.3294 Y1.3672  
G01 X-1.5699 Y1.3672  
G01 X-1.5861 Y1.3835  
G01 X-1.6082 Y1.3835  
G01 X-1.6116 Y1.3991  
G01 X-1.6116 Y1.3992  
G01 X-1.6121 Y1.4013  
G01 X-1.6125 Y1.4035  
G01 X-1.6126 Y1.4037  
G01 X-1.6135 Y1.4057  
G01 X-1.6144 Y1.4077  
G01 X-1.6176 Y1.4150  
G01 X-1.6165 Y1.4161  
G01 X-1.6165 Y1.4439  
G01 X-1.6361 Y1.4635  
G01 X-1.6639 Y1.4635  
G01 X-1.6835 Y1.4439  
G01 X-1.6835 Y1.4161  
G01 X-1.6639 Y1.3965  
G01 X-1.6608 Y1.3965  
G01 X-1.6575 Y1.3889  
G01 X-1.6541 Y1.3735  
G01 X-1.6761 Y1.3735  
G01 X-1.6861 Y1.3835  
G01 X-1.7139 Y1.3835  
G01 X-1.7335 Y1.3639  
G01 X-1.7335 Y1.3361  
G01 X-1.7139 Y1.3165  
G01 X-1.6861 Y1.3165  
G01 X-1.6761 Y1.3265  
G01 X-1.6271 Y1.3265  
G01 X-1.6269 Y1.3265  
G01 X-1.6248 Y1.3265  
G01 X-1.6239 Y1.3265  
G01 X-1.6139 Y1.3165  
G01 X-1.5861 Y1.3165  
G01 X-1.5824 Y1.3202  
G01 X-1.3313 Y1.3202  
G01 X-1.2975 Y1.2789  
G01 X-1.2975 Y0.9807  
G01 X-1.2976 Y0.9788  
G01 X-1.2975 Y0.9780  
G01 X-1.2975 Y0.9773  
G01 X-1.2971 Y0.9754  
G01 X-1.2968 Y0.9734  
G01 X-1.2966 Y0.9727  
G01 X-1.2964 Y0.9720  
G01 X-1.2957 Y0.9702  
G01 X-1.2950 Y0.9683  
G01 X-1.2947 Y0.9677  
G01 X-1.2944 Y0.9670  
G01 X-1.2933 Y0.9653  
G01 X-1.2923 Y0.9637  
G01 X-1.2918 Y0.9631  
G01 X-1.2914 Y0.9625  
G01 X-1.2900 Y0.9611  
G01 X-1.2887 Y0.9596  
G01 X-1.2881 Y0.9592  
G01 X-1.2875 Y0.9586  
G01 X-1.2859 Y0.9575  
G01 X-1.2575 Y0.9363  
G01 X-1.2575 Y0.6821  
G01 X-1.2576 Y0.6816  
G01 X-1.2575 Y0.6794  
G01 X-1.2575 Y0.6773  
G01 X-1.2574 Y0.6767  
G01 X-1.2574 Y0.6762  
G01 X-1.2569 Y0.6741  
G01 X-1.2564 Y0.6720  
G01 X-1.2562 Y0.6715  
G01 X-1.1872 Y0.3856  
G01 X-1.1675 Y0.1588  
G01 X-1.1675 Y0.1573  
G01 X-1.1673 Y0.1561  
G01 X-1.1672 Y0.1549  
G01 X-1.1667 Y0.1535  
G01 X-1.1664 Y0.1520  
G01 X-1.1660 Y0.1509  
G01 X-1.1656 Y0.1497  
G01 X-1.1649 Y0.1484  
G01 X-1.1644 Y0.1470  
G01 X-1.1637 Y0.1460  
G01 X-1.1631 Y0.1449  
G01 X-1.1622 Y0.1437  
G01 X-1.1614 Y0.1425  
G01 X-1.1605 Y0.1416  
G01 X-1.1598 Y0.1407  
G01 X-1.1586 Y0.1397  
G01 X-1.1175 Y0.0986  
G01 X-1.1130 Y0.0956  
G01 X-1.1080 Y0.0936  
G01 X-1.1027 Y0.0925  
G01 X-0.7773 Y0.0925  
G01 X-0.7720 Y0.0936  
G01 X-0.7670 Y0.0956  
G01 X-0.7625 Y0.0986  
G01 X-0.7586 Y0.1025  
G01 X-0.7024 Y0.1587  
G01 X-0.7011 Y0.1589  
G01 X-0.6925 Y0.1617  
G01 X-0.6845 Y0.1658  
G01 X-0.6771 Y0.1711  
G01 X-0.6707 Y0.1775  
G01 X-0.6654 Y0.1849  
G01 X-0.6613 Y0.1929  
G01 X-0.6585 Y0.2015  
G01 X-0.6571 Y0.2105  
G01 X-0.6571 Y0.2195  
G01 X-0.6585 Y0.2285  
G01 X-0.6613 Y0.2371  
G01 X-0.6654 Y0.2451  
G01 X-0.6707 Y0.2525  
G01 X-0.6771 Y0.2589  
G00 Z0.0500  
G00 X-0.8268 Y0.2589  
G01 Z-0.0035 F10    
G01 X-0.8341 Y0.2642  F20    
G01 X-0.8421 Y0.2683  
G01 X-0.8507 Y0.2711  
G01 X-0.8597 Y0.2725  
G01 X-0.8687 Y0.2725  
G01 X-0.8777 Y0.2711  
G01 X-0.8863 Y0.2683  
G01 X-0.8943 Y0.2642  
G01 X-0.9017 Y0.2589  
G01 X-0.9081 Y0.2525  
G01 X-0.9134 Y0.2451  
G01 X-0.9169 Y0.2382  
G01 X-0.9565 Y0.2527  
G01 X-0.9565 Y0.2539  
G01 X-0.9761 Y0.2735  
G01 X-1.0039 Y0.2735  
G01 X-1.0235 Y0.2539  
G01 X-1.0235 Y0.2261  
G01 X-1.0039 Y0.2065  
G01 X-0.9761 Y0.2065  
G01 X-0.9737 Y0.2090  
G01 X-0.9146 Y0.1872  
G01 X-0.9134 Y0.1849  
G01 X-0.9081 Y0.1775  
G01 X-0.9017 Y0.1711  
G01 X-0.8943 Y0.1658  
G01 X-0.8863 Y0.1617  
G01 X-0.8777 Y0.1589  
G01 X-0.8687 Y0.1575  
G01 X-0.8597 Y0.1575  
G01 X-0.8507 Y0.1589  
G01 X-0.8421 Y0.1617  
G01 X-0.8341 Y0.1658  
G01 X-0.8268 Y0.1711  
G01 X-0.8204 Y0.1775  
G01 X-0.8150 Y0.1849  
G01 X-0.8109 Y0.1929  
G01 X-0.8081 Y0.2015  
G01 X-0.8067 Y0.2105  
G01 X-0.8067 Y0.2195  
G01 X-0.8081 Y0.2285  
G01 X-0.8109 Y0.2371  
G01 X-0.8150 Y0.2451  
G01 X-0.8204 Y0.2525  
G01 X-0.8268 Y0.2589  
G00 Z0.0500  
G00 X-0.9565 Y0.5261  
G01 Z-0.0035 F10    
G01 X-0.9565 Y0.5539  F20    
G01 X-0.9685 Y0.5658  
G01 X-0.9865 Y0.7933  
G01 X-0.9865 Y0.7962  
G01 X-0.9765 Y0.8061  
G01 X-0.9765 Y0.8339  
G01 X-0.9838 Y0.8412  
G01 X-0.9852 Y0.8628  
G01 X-0.8317 Y1.0163  
G01 X-0.8292 Y1.0201  
G01 X-0.8274 Y1.0244  
G01 X-0.8265 Y1.0289  
G01 X-0.8265 Y1.0761  
G01 X-0.8165 Y1.0861  
G01 X-0.8165 Y1.1139  
G01 X-0.8327 Y1.1301  
G01 X-0.8327 Y1.1336  
G01 X-0.8337 Y1.1381  
G01 X-0.8354 Y1.1424  
G01 X-0.8380 Y1.1462  
G01 X-0.8413 Y1.1495  
G01 X-1.3702 Y1.6785  
G01 X-1.3702 Y1.6824  
G01 X-1.3665 Y1.6861  
G01 X-1.3665 Y1.7139  
G01 X-1.3765 Y1.7239  
G01 X-1.3765 Y1.7761  
G01 X-1.3740 Y1.7786  
G01 X-1.3703 Y1.7841  
G01 X-1.3678 Y1.7902  
G01 X-1.3665 Y1.7967  
G01 X-1.3665 Y1.8033  
G01 X-1.3678 Y1.8098  
G01 X-1.3703 Y1.8159  
G01 X-1.3740 Y1.8214  
G01 X-1.3786 Y1.8260  
G01 X-1.3841 Y1.8297  
G01 X-1.3902 Y1.8322  
G01 X-1.3967 Y1.8335  
G01 X-1.4033 Y1.8335  
G01 X-1.4098 Y1.8322  
G01 X-1.4159 Y1.8297  
G01 X-1.4214 Y1.8260  
G01 X-1.4260 Y1.8214  
G01 X-1.4297 Y1.8159  
G01 X-1.4322 Y1.8098  
G01 X-1.4335 Y1.8033  
G01 X-1.4335 Y1.7967  
G01 X-1.4322 Y1.7902  
G01 X-1.4297 Y1.7841  
G01 X-1.4260 Y1.7786  
G01 X-1.4235 Y1.7761  
G01 X-1.4235 Y1.7239  
G01 X-1.4335 Y1.7139  
G01 X-1.4335 Y1.6861  
G01 X-1.4172 Y1.6699  
G01 X-1.4172 Y1.6664  
G01 X-1.4163 Y1.6619  
G01 X-1.4146 Y1.6576  
G01 X-1.4120 Y1.6538  
G01 X-0.8797 Y1.1215  
G01 X-0.8797 Y1.1176  
G01 X-0.8835 Y1.1139  
G01 X-0.8835 Y1.0861  
G01 X-0.8735 Y1.0761  
G01 X-0.8735 Y1.0410  
G01 X-1.0249 Y0.8896  
G01 X-1.0255 Y0.8891  
G01 X-1.0265 Y0.8880  
G01 X-1.0275 Y0.8870  
G01 X-1.0276 Y0.8869  
G01 X-1.0281 Y0.8862  
G01 X-1.0286 Y0.8856  
G01 X-1.0293 Y0.8844  
G01 X-1.0301 Y0.8832  
G01 X-1.0302 Y0.8830  
G01 X-1.0305 Y0.8823  
G01 X-1.0309 Y0.8816  
G01 X-1.0314 Y0.8802  
G01 X-1.0319 Y0.8789  
G01 X-1.0320 Y0.8787  
G01 X-1.0321 Y0.8780  
G01 X-1.0324 Y0.8772  
G01 X-1.0326 Y0.8758  
G01 X-1.0329 Y0.8744  
G01 X-1.0329 Y0.8742  
G01 X-1.0329 Y0.8734  
G01 X-1.0330 Y0.8726  
G01 X-1.0329 Y0.8712  
G01 X-1.0331 Y0.8443  
G01 X-1.0435 Y0.8339  
G01 X-1.0435 Y0.8061  
G01 X-1.0335 Y0.7961  
G01 X-1.0335 Y0.7940  
G01 X-1.0336 Y0.7930  
G01 X-1.0335 Y0.7917  
G01 X-1.0335 Y0.7904  
G01 X-1.0333 Y0.7894  
G01 X-1.0153 Y0.5621  
G01 X-1.0235 Y0.5539  
G01 X-1.0235 Y0.5261  
G01 X-1.0039 Y0.5065  
G01 X-0.9761 Y0.5065  
G01 X-0.9565 Y0.5261  
G00 Z0.0500  
G00 X-1.2480 Y0.4954  
G01 Z-0.0035 F10    
G01 X-1.2631 Y0.5556  F20    
G01 X-1.2693 Y0.5933  
G01 X-1.2665 Y0.5961  
G01 X-1.2665 Y0.6239  
G01 X-1.2850 Y0.6424  
G01 X-1.2850 Y0.7915  
G01 X-1.2860 Y0.7966  
G01 X-1.2765 Y0.8061  
G01 X-1.2765 Y0.8339  
G01 X-1.2961 Y0.8535  
G01 X-1.3239 Y0.8535  
G01 X-1.3289 Y0.8485  
G01 X-1.9199 Y0.8485  
G01 X-2.1077 Y1.1309  
G01 X-2.1077 Y1.4294  
G01 X-2.1069 Y1.4307  
G01 X-2.1048 Y1.4357  
G01 X-2.1037 Y1.4410  
G01 X-2.1037 Y1.4574  
G01 X-2.1001 Y1.4610  
G01 X-2.0838 Y1.4610  
G01 X-2.0610 Y1.4838  
G01 X-2.0610 Y1.5162  
G01 X-2.0838 Y1.5390  
G01 X-2.1162 Y1.5390  
G01 X-2.1390 Y1.5162  
G01 X-2.1390 Y1.4999  
G01 X-2.1526 Y1.4863  
G01 X-2.1556 Y1.4818  
G01 X-2.1577 Y1.4768  
G01 X-2.1587 Y1.4715  
G01 X-2.1587 Y1.4410  
G01 X-2.1577 Y1.4357  
G01 X-2.1556 Y1.4307  
G01 X-2.1547 Y1.4294  
G01 X-2.1547 Y1.1238  
G01 X-2.1548 Y1.1215  
G01 X-2.1543 Y1.1191  
G01 X-2.1539 Y1.1169  
G01 X-2.1530 Y1.1148  
G01 X-2.1521 Y1.1127  
G01 X-2.1508 Y1.1107  
G01 X-1.9533 Y0.8139  
G01 X-1.9521 Y0.8120  
G01 X-1.9508 Y0.8101  
G01 X-1.9491 Y0.8084  
G01 X-1.9475 Y0.8068  
G01 X-1.9456 Y0.8055  
G01 X-1.9437 Y0.8042  
G01 X-1.9415 Y0.8033  
G01 X-1.9394 Y0.8024  
G01 X-1.9371 Y0.8020  
G01 X-1.9349 Y0.8015  
G01 X-1.9325 Y0.8015  
G01 X-1.9302 Y0.8015  
G01 X-1.3389 Y0.8015  
G01 X-1.3375 Y0.8002  
G01 X-1.3389 Y0.7968  
G01 X-1.3400 Y0.7915  
G01 X-1.3400 Y0.6198  
G01 X-1.3389 Y0.6145  
G01 X-1.3369 Y0.6095  
G01 X-1.3339 Y0.6050  
G01 X-1.3335 Y0.6046  
G01 X-1.3335 Y0.5961  
G01 X-1.3240 Y0.5866  
G01 X-1.3174 Y0.5471  
G01 X-1.3173 Y0.5460  
G01 X-1.3169 Y0.5444  
G01 X-1.3167 Y0.5428  
G01 X-1.3163 Y0.5418  
G01 X-1.3022 Y0.4852  
G01 X-1.3035 Y0.4839  
G01 X-1.3035 Y0.4561  
G01 X-1.2839 Y0.4365  
G01 X-1.2561 Y0.4365  
G01 X-1.2365 Y0.4561  
G01 X-1.2365 Y0.4839  
G01 X-1.2480 Y0.4954  
G00 Z0.0500  
G00 X-1.3740 Y0.5509  
G01 Z-0.0035 F10    
G01 X-1.3734 Y0.5523  F20    
G01 X-1.3732 Y0.5535  
G01 X-1.3729 Y0.5547  
G01 X-1.3727 Y0.5562  
G01 X-1.3725 Y0.5577  
G01 X-1.3725 Y0.5589  
G01 X-1.3724 Y0.5601  
G01 X-1.3725 Y0.5616  
G01 X-1.3737 Y0.6501  
G01 X-1.3736 Y0.6513  
G01 X-1.3738 Y0.6528  
G01 X-1.3738 Y0.6543  
G01 X-1.3740 Y0.6555  
G01 X-1.3742 Y0.6567  
G01 X-1.3746 Y0.6581  
G01 X-1.3749 Y0.6596  
G01 X-1.3754 Y0.6607  
G01 X-1.3979 Y0.7347  
G01 X-1.3965 Y0.7361  
G01 X-1.3965 Y0.7639  
G01 X-1.4161 Y0.7835  
G01 X-1.4439 Y0.7835  
G01 X-1.4441 Y0.7832  
G01 X-1.4444 Y0.7833  
G01 X-1.4458 Y0.7835  
G01 X-1.4473 Y0.7837  
G01 X-1.4485 Y0.7837  
G01 X-1.4498 Y0.7839  
G01 X-1.4512 Y0.7837  
G01 X-1.9701 Y0.7837  
G01 X-2.1662 Y1.0832  
G01 X-2.1662 Y1.3389  
G01 X-2.1662 Y1.3392  
G01 X-2.1662 Y1.3416  
G01 X-2.1662 Y1.3440  
G01 X-2.1663 Y1.3443  
G01 X-2.1663 Y1.3446  
G01 X-2.1668 Y1.3469  
G01 X-2.1673 Y1.3493  
G01 X-2.1674 Y1.3496  
G01 X-2.1675 Y1.3499  
G01 X-2.1685 Y1.3521  
G01 X-2.1694 Y1.3543  
G01 X-2.1696 Y1.3545  
G01 X-2.1697 Y1.3548  
G01 X-2.1711 Y1.3568  
G01 X-2.1724 Y1.3588  
G01 X-2.1726 Y1.3590  
G01 X-2.2365 Y1.4501  
G01 X-2.2365 Y1.4639  
G01 X-2.2561 Y1.4835  
G01 X-2.2839 Y1.4835  
G01 X-2.3035 Y1.4639  
G01 X-2.3035 Y1.4361  
G01 X-2.2839 Y1.4165  
G01 X-2.2801 Y1.4165  
G01 X-2.2212 Y1.3326  
G01 X-2.2212 Y1.0751  
G01 X-2.2213 Y1.0725  
G01 X-2.2212 Y1.0724  
G01 X-2.2212 Y1.0723  
G01 X-2.2207 Y1.0698  
G01 X-2.2203 Y1.0672  
G01 X-2.2202 Y1.0671  
G01 X-2.2202 Y1.0670  
G01 X-2.2192 Y1.0646  
G01 X-2.2182 Y1.0622  
G01 X-2.2182 Y1.0621  
G01 X-2.2181 Y1.0620  
G01 X-2.2167 Y1.0598  
G01 X-2.0094 Y0.7433  
G01 X-2.0094 Y0.7432  
G01 X-2.0079 Y0.7411  
G01 X-2.0065 Y0.7389  
G01 X-2.0064 Y0.7387  
G01 X-2.0045 Y0.7369  
G01 X-2.0027 Y0.7351  
G01 X-2.0026 Y0.7350  
G01 X-2.0004 Y0.7335  
G01 X-1.9983 Y0.7320  
G01 X-1.9981 Y0.7320  
G01 X-1.9980 Y0.7319  
G01 X-1.9956 Y0.7309  
G01 X-1.9933 Y0.7299  
G01 X-1.9931 Y0.7299  
G01 X-1.9930 Y0.7298  
G01 X-1.9905 Y0.7293  
G01 X-1.9880 Y0.7288  
G01 X-1.9878 Y0.7288  
G01 X-1.9877 Y0.7288  
G01 X-1.9851 Y0.7288  
G01 X-1.9825 Y0.7287  
G01 X-1.9824 Y0.7288  
G01 X-1.4561 Y0.7288  
G01 X-1.4524 Y0.7250  
G01 X-1.4287 Y0.6470  
G01 X-1.4276 Y0.5639  
G01 X-1.4518 Y0.4835  
G01 X-1.4639 Y0.4835  
G01 X-1.4835 Y0.4639  
G01 X-1.4835 Y0.4361  
G01 X-1.4639 Y0.4165  
G01 X-1.4554 Y0.4165  
G01 X-1.4021 Y0.3632  
G01 X-1.3662 Y0.3154  
G01 X-1.3651 Y0.3137  
G01 X-1.3646 Y0.3132  
G01 X-1.3641 Y0.3126  
G01 X-1.3627 Y0.3113  
G01 X-1.3000 Y0.2486  
G01 X-1.2975 Y0.2469  
G01 X-1.2975 Y0.2414  
G01 X-1.3614 Y0.1775  
G01 X-2.0095 Y0.1775  
G01 X-2.0113 Y0.1781  
G01 X-2.0132 Y0.1789  
G01 X-2.0138 Y0.1791  
G01 X-2.0144 Y0.1793  
G01 X-2.0165 Y0.1796  
G01 X-2.0185 Y0.1800  
G01 X-2.0191 Y0.1800  
G01 X-2.0197 Y0.1801  
G01 X-2.0218 Y0.1800  
G01 X-2.0240 Y0.1800  
G01 X-2.0245 Y0.1799  
G01 X-2.0247 Y0.1799  
G01 X-2.0362 Y0.3258  
G01 X-2.0362 Y0.3271  
G01 X-2.0364 Y0.3285  
G01 X-2.0365 Y0.3299  
G01 X-2.0369 Y0.3311  
G01 X-2.0371 Y0.3324  
G01 X-2.0376 Y0.3337  
G01 X-2.0380 Y0.3351  
G01 X-2.0386 Y0.3362  
G01 X-2.0391 Y0.3374  
G01 X-2.0398 Y0.3386  
G01 X-2.0405 Y0.3399  
G01 X-2.0413 Y0.3409  
G01 X-2.0420 Y0.3420  
G01 X-2.0430 Y0.3430  
G01 X-2.0438 Y0.3442  
G01 X-2.0448 Y0.3450  
G01 X-2.0457 Y0.3459  
G01 X-2.0469 Y0.3468  
G01 X-2.0480 Y0.3477  
G01 X-2.0491 Y0.3483  
G01 X-2.1165 Y0.3957  
G01 X-2.1165 Y0.4024  
G01 X-2.0967 Y0.4354  
G01 X-2.0955 Y0.4373  
G01 X-2.0953 Y0.4377  
G01 X-2.0950 Y0.4382  
G01 X-2.0943 Y0.4403  
G01 X-2.0822 Y0.4704  
G01 X-2.0665 Y0.4861  
G01 X-2.0665 Y0.5139  
G01 X-2.0861 Y0.5335  
G01 X-2.1139 Y0.5335  
G01 X-2.1335 Y0.5139  
G01 X-2.1335 Y0.4903  
G01 X-2.1447 Y0.4623  
G01 X-2.1620 Y0.4335  
G01 X-2.1639 Y0.4335  
G01 X-2.1775 Y0.4199  
G01 X-2.1784 Y0.4195  
G01 X-2.1800 Y0.4190  
G01 X-2.1809 Y0.4185  
G01 X-2.1818 Y0.4181  
G01 X-2.1832 Y0.4172  
G01 X-2.1847 Y0.4163  
G01 X-2.1855 Y0.4157  
G01 X-2.1863 Y0.4151  
G01 X-2.1875 Y0.4139  
G01 X-2.1888 Y0.4128  
G01 X-2.1894 Y0.4120  
G01 X-2.1901 Y0.4113  
G01 X-2.1911 Y0.4098  
G01 X-2.1921 Y0.4085  
G01 X-2.1926 Y0.4076  
G01 X-2.1931 Y0.4068  
G01 X-2.1938 Y0.4052  
G01 X-2.1946 Y0.4036  
G01 X-2.1948 Y0.4027  
G01 X-2.1952 Y0.4018  
G01 X-2.1955 Y0.4001  
G01 X-2.1960 Y0.3984  
G01 X-2.1960 Y0.3975  
G01 X-2.2623 Y0.3237  
G01 X-2.4764 Y0.3237  
G01 X-2.4861 Y0.3335  
G01 X-2.4907 Y0.3335  
G01 X-2.5066 Y0.3547  
G01 X-2.5068 Y0.3550  
G01 X-2.5082 Y0.3568  
G01 X-2.5096 Y0.3587  
G01 X-2.5099 Y0.3589  
G01 X-2.5102 Y0.3592  
G01 X-2.5119 Y0.3607  
G01 X-2.5137 Y0.3623  
G01 X-2.5140 Y0.3625  
G01 X-2.6265 Y0.4577  
G01 X-2.6265 Y0.4639  
G01 X-2.6461 Y0.4835  
G01 X-2.6739 Y0.4835  
G01 X-2.6778 Y0.4796  
G01 X-2.7116 Y0.4831  
G01 X-2.8818 Y0.5574  
G01 X-3.0136 Y0.6648  
G01 X-3.0153 Y0.6663  
G01 X-3.0156 Y0.6665  
G01 X-3.0160 Y0.6668  
G01 X-3.0180 Y0.6679  
G01 X-3.0200 Y0.6690  
G01 X-3.0204 Y0.6691  
G01 X-3.0208 Y0.6693  
G01 X-3.0224 Y0.6698  
G01 X-3.0361 Y0.6835  
G01 X-3.0452 Y0.6835  
G01 X-3.0563 Y0.6941  
G01 X-3.0732 Y0.7417  
G01 X-3.0710 Y0.7438  
G01 X-3.0710 Y0.7762  
G01 X-3.0938 Y0.7990  
G01 X-3.1262 Y0.7990  
G01 X-3.1490 Y0.7762  
G01 X-3.1490 Y0.7438  
G01 X-3.1262 Y0.7210  
G01 X-3.1242 Y0.7210  
G01 X-3.1065 Y0.6712  
G01 X-3.1063 Y0.6702  
G01 X-3.1056 Y0.6686  
G01 X-3.1050 Y0.6670  
G01 X-3.1045 Y0.6661  
G01 X-3.1041 Y0.6652  
G01 X-3.1031 Y0.6638  
G01 X-3.1022 Y0.6623  
G01 X-3.1016 Y0.6616  
G01 X-3.1010 Y0.6608  
G01 X-3.0998 Y0.6596  
G01 X-3.0986 Y0.6583  
G01 X-3.0978 Y0.6577  
G01 X-3.0835 Y0.6440  
G01 X-3.0835 Y0.6361  
G01 X-3.0639 Y0.6165  
G01 X-3.0413 Y0.6165  
G01 X-2.9149 Y0.5135  
G01 X-2.9142 Y0.5127  
G01 X-2.9128 Y0.5118  
G01 X-2.9115 Y0.5107  
G01 X-2.9106 Y0.5102  
G01 X-2.9097 Y0.5096  
G01 X-2.9082 Y0.5090  
G01 X-2.9067 Y0.5082  
G01 X-2.9057 Y0.5079  
G01 X-2.7309 Y0.4315  
G01 X-2.7295 Y0.4308  
G01 X-2.7284 Y0.4304  
G01 X-2.7273 Y0.4300  
G01 X-2.7258 Y0.4296  
G01 X-2.7244 Y0.4292  
G01 X-2.7232 Y0.4291  
G01 X-2.7220 Y0.4288  
G01 X-2.7205 Y0.4288  
G01 X-2.6821 Y0.4247  
G01 X-2.6739 Y0.4165  
G01 X-2.6630 Y0.4165  
G01 X-2.5501 Y0.3210  
G01 X-2.5335 Y0.2988  
G01 X-2.5335 Y0.2861  
G01 X-2.5139 Y0.2665  
G01 X-2.4861 Y0.2665  
G01 X-2.4839 Y0.2687  
G01 X-2.4813 Y0.2687  
G01 X-2.4786 Y0.2687  
G01 X-2.2520 Y0.2687  
G01 X-2.2512 Y0.2686  
G01 X-2.2493 Y0.2687  
G01 X-2.2473 Y0.2687  
G01 X-2.2466 Y0.2689  
G01 X-2.2458 Y0.2689  
G01 X-2.2439 Y0.2694  
G01 X-2.2420 Y0.2698  
G01 X-2.2413 Y0.2701  
G01 X-2.2406 Y0.2703  
G01 X-2.2388 Y0.2711  
G01 X-2.2370 Y0.2719  
G01 X-2.2364 Y0.2723  
G01 X-2.2357 Y0.2726  
G01 X-2.2341 Y0.2738  
G01 X-2.2325 Y0.2749  
G01 X-2.2319 Y0.2754  
G01 X-2.2313 Y0.2759  
G01 X-2.2300 Y0.2773  
G01 X-2.2286 Y0.2787  
G01 X-2.2282 Y0.2793  
G01 X-2.1580 Y0.3576  
G01 X-2.0901 Y0.3099  
G01 X-2.0796 Y0.1764  
G01 X-2.1711 Y0.1687  
G01 X-2.3800 Y0.1687  
G01 X-2.3816 Y0.1689  
G01 X-2.3828 Y0.1687  
G01 X-2.3840 Y0.1687  
G01 X-2.3854 Y0.1685  
G01 X-2.3869 Y0.1683  
G01 X-2.3881 Y0.1679  
G01 X-2.3893 Y0.1677  
G01 X-2.3907 Y0.1671  
G01 X-2.3921 Y0.1667  
G01 X-2.3932 Y0.1661  
G01 X-2.3943 Y0.1656  
G01 X-2.3955 Y0.1648  
G01 X-2.3969 Y0.1641  
G01 X-2.3978 Y0.1633  
G01 X-2.3988 Y0.1626  
G01 X-2.3998 Y0.1615  
G01 X-2.5002 Y0.0773  
G01 X-3.4888 Y0.0590  
G01 X-3.7412 Y0.3114  
G01 X-3.7412 Y0.9994  
G01 X-3.7397 Y1.0379  
G01 X-3.7383 Y1.0372  
G01 X-3.7370 Y1.0364  
G01 X-3.7359 Y1.0360  
G01 X-3.7349 Y1.0354  
G01 X-3.7334 Y1.0350  
G01 X-3.7320 Y1.0345  
G01 X-3.7308 Y1.0343  
G01 X-3.7297 Y1.0340  
G01 X-3.7281 Y1.0339  
G01 X-3.7266 Y1.0337  
G01 X-3.7254 Y1.0337  
G01 X-3.7242 Y1.0336  
G01 X-3.7227 Y1.0338  
G01 X-3.6932 Y1.0350  
G01 X-3.5760 Y1.0350  
G01 X-3.5742 Y1.0349  
G01 X-3.5733 Y1.0350  
G01 X-3.5723 Y1.0350  
G01 X-3.5706 Y1.0353  
G01 X-3.5689 Y1.0356  
G01 X-3.5679 Y1.0359  
G01 X-3.5670 Y1.0361  
G01 X-3.5654 Y1.0367  
G01 X-3.5637 Y1.0373  
G01 X-3.4835 Y0.9571  
G01 X-3.4835 Y0.9383  
G01 X-3.5156 Y0.8501  
G01 X-3.5368 Y0.8005  
G01 X-3.5535 Y0.7839  
G01 X-3.5535 Y0.7561  
G01 X-3.5339 Y0.7365  
G01 X-3.5061 Y0.7365  
G01 X-3.4865 Y0.7561  
G01 X-3.4865 Y0.7784  
G01 X-3.4655 Y0.8274  
G01 X-3.4651 Y0.8281  
G01 X-3.4644 Y0.8299  
G01 X-3.4637 Y0.8317  
G01 X-3.4635 Y0.8324  
G01 X-3.4311 Y0.9215  
G01 X-3.4165 Y0.9361  
G01 X-3.4165 Y0.9639  
G01 X-3.4301 Y0.9775  
G01 X-3.4305 Y0.9784  
G01 X-3.4310 Y0.9800  
G01 X-3.4315 Y0.9809  
G01 X-3.4319 Y0.9818  
G01 X-3.4328 Y0.9832  
G01 X-3.4337 Y0.9847  
G01 X-3.4343 Y0.9855  
G01 X-3.4349 Y0.9863  
G01 X-3.4361 Y0.9875  
G01 X-3.4372 Y0.9888  
G01 X-3.4380 Y0.9894  
G01 X-3.5288 Y1.0801  
G01 X-3.5288 Y1.0892  
G01 X-3.5035 Y1.1165  
G01 X-3.4961 Y1.1165  
G01 X-3.4765 Y1.1361  
G01 X-3.4765 Y1.1639  
G01 X-3.4961 Y1.1835  
G01 X-3.5239 Y1.1835  
G01 X-3.5435 Y1.1639  
G01 X-3.5435 Y1.1543  
G01 X-3.5761 Y1.1191  
G01 X-3.5776 Y1.1175  
G01 X-3.5779 Y1.1171  
G01 X-3.5783 Y1.1167  
G01 X-3.5794 Y1.1148  
G01 X-3.5806 Y1.1130  
G01 X-3.5808 Y1.1125  
G01 X-3.5811 Y1.1121  
G01 X-3.5819 Y1.1100  
G01 X-3.5827 Y1.1080  
G01 X-3.5828 Y1.1075  
G01 X-3.5830 Y1.1070  
G01 X-3.5833 Y1.1048  
G01 X-3.5837 Y1.1027  
G01 X-3.5837 Y1.1022  
G01 X-3.5838 Y1.1016  
G01 X-3.5837 Y1.0995  
G01 X-3.5837 Y1.0900  
G01 X-3.6916 Y1.0900  
G01 X-3.6921 Y1.0901  
G01 X-3.6943 Y1.0900  
G01 X-3.6965 Y1.0900  
G01 X-3.6970 Y1.0899  
G01 X-3.7190 Y1.0890  
G01 X-3.7311 Y1.0951  
G01 X-3.7319 Y1.0956  
G01 X-3.7335 Y1.0963  
G01 X-3.7351 Y1.0971  
G01 X-3.7360 Y1.0973  
G01 X-3.7369 Y1.0977  
G01 X-3.7386 Y1.0980  
G01 X-3.7390 Y1.0981  
G01 X-3.7400 Y1.2438  
G01 X-3.7400 Y1.9074  
G01 X-3.6240 Y1.9610  
G01 X-3.6184 Y1.9555  
G01 X-3.5816 Y1.9555  
G01 X-3.5746 Y1.9625  
G01 X-3.5254 Y1.9625  
G01 X-3.5184 Y1.9555  
G01 X-3.4816 Y1.9555  
G01 X-3.4746 Y1.9625  
G01 X-3.4685 Y1.9625  
G01 X-3.4658 Y1.9636  
G01 X-3.4636 Y1.9658  
G01 X-3.4625 Y1.9685  
G01 X-3.4625 Y1.9746  
G01 X-3.4555 Y1.9816  
G01 X-3.4555 Y2.0184  
G01 X-3.4625 Y2.0254  
G01 X-3.4625 Y2.0746  
G01 X-3.4555 Y2.0816  
G01 X-3.4555 Y2.1184  
G01 X-3.4625 Y2.1254  
G01 X-3.4625 Y2.1746  
G01 X-3.4555 Y2.1816  
G01 X-3.4555 Y2.2184  
G01 X-3.4625 Y2.2254  
G01 X-3.4625 Y2.2315  
G01 X-3.4636 Y2.2342  
G01 X-3.4658 Y2.2364  
G01 X-3.4685 Y2.2375  
G01 X-3.4746 Y2.2375  
G01 X-3.4816 Y2.2445  
G01 X-3.5184 Y2.2445  
G01 X-3.5254 Y2.2375  
G01 X-3.5746 Y2.2375  
G01 X-3.5816 Y2.2445  
G01 X-3.6181 Y2.2445  
G01 X-3.6538 Y2.2801  
G01 X-3.6538 Y2.3199  
G01 X-3.6249 Y2.3487  
G01 X-1.5116 Y2.3487  
G01 X-1.4570 Y2.2835  
G01 X-1.4564 Y2.2825  
G01 X-1.4553 Y2.2814  
G01 X-1.4544 Y2.2803  
G01 X-1.4534 Y2.2795  
G01 X-1.4525 Y2.2786  
G01 X-1.4513 Y2.2778  
G01 X-1.4501 Y2.2769  
G01 X-1.4491 Y2.2763  
G01 X-1.4480 Y2.2756  
G01 X-1.4467 Y2.2751  
G01 X-1.4453 Y2.2744  
G01 X-1.4442 Y2.2740  
G01 X-1.4430 Y2.2736  
G01 X-1.4416 Y2.2733  
G01 X-1.4401 Y2.2728  
G01 X-1.4389 Y2.2727  
G01 X-1.4377 Y2.2725  
G01 X-1.4362 Y2.2725  
G01 X-1.4347 Y2.2724  
G01 X-1.4335 Y2.2725  
G01 X-1.3245 Y2.2725  
G01 X-1.3176 Y2.2702  
G01 X-1.3039 Y2.2565  
G01 X-1.2761 Y2.2565  
G01 X-1.2601 Y2.2725  
G01 X-1.0048 Y2.2725  
G01 X-1.0034 Y2.2711  
G01 X-0.9973 Y2.2670  
G01 X-0.9905 Y2.2642  
G01 X-0.9833 Y2.2628  
G01 X-0.9167 Y2.2628  
G01 X-0.9095 Y2.2642  
G01 X-0.9027 Y2.2670  
G01 X-0.8966 Y2.2711  
G01 X-0.8952 Y2.2725  
G01 X-0.7473 Y2.2725  
G01 X-0.7420 Y2.2736  
G01 X-0.7370 Y2.2756  
G01 X-0.7325 Y2.2786  
G01 X-0.6886 Y2.3225  
G01 X-0.2630 Y2.3225  
G01 X-0.1559 Y2.2155  
G01 X-0.1559 Y2.1423  
G01 X-0.1545 Y2.1334  
G01 X-0.1517 Y2.1248  
G01 X-0.1476 Y2.1167  
G01 X-0.1423 Y2.1094  
G01 X-0.1359 Y2.1030  
G01 X-0.1286 Y2.0977  
G01 X-0.1275 Y2.0971  
G01 X-0.1275 Y1.9614  
G01 X-0.4114 Y1.6775  
G01 X-0.4197 Y1.6775  
G01 X-0.4199 Y1.6780  
G01 X-0.4220 Y1.6801  
G01 X-0.4248 Y1.6812  
G01 X-0.4752 Y1.6812  
G01 X-0.4780 Y1.6801  
G01 X-0.4801 Y1.6780  
G01 X-0.4812 Y1.6752  
G01 X-0.4812 Y1.6248  
G01 X-0.4801 Y1.6220  
G01 X-0.4780 Y1.6199  
G01 X-0.4752 Y1.6188  
G01 X-0.4248 Y1.6188  
G01 X-0.4220 Y1.6199  
G01 X-0.4199 Y1.6220  
G01 X-0.4197 Y1.6225  
G01 X-0.3973 Y1.6225  
G01 X-0.3920 Y1.6236  
G01 X-0.3870 Y1.6256  
G01 X-0.3825 Y1.6286  
G01 X-0.0825 Y1.9286  
G01 X-0.0786 Y1.9325  
G01 X-0.0756 Y1.9370  
G01 X-0.0736 Y1.9420  
G01 X-0.0725 Y1.9473  
G01 X-0.0725 Y2.0955  
G01 X-0.0683 Y2.0977  
G01 X-0.0610 Y2.1030  
G01 X-0.0546 Y2.1094  
G01 X-0.0492 Y2.1167  
G01 X-0.0451 Y2.1248  
G01 X-0.0423 Y2.1334  
G01 X-0.0409 Y2.1423  
G01 X-0.0409 Y2.2514  
G01 X-0.0423 Y2.2603  
G01 X-0.0451 Y2.2689  
G01 X-0.0492 Y2.2770  
G01 X-0.0546 Y2.2843  
G01 X-0.0610 Y2.2907  
G01 X-0.0683 Y2.2960  
G01 X-0.0764 Y2.3001  
G01 X-0.0850 Y2.3029  
G01 X-0.0939 Y2.3044  
G01 X-0.1030 Y2.3044  
G01 X-0.1119 Y2.3029  
G01 X-0.1205 Y2.3001  
G01 X-0.1286 Y2.2960  
G01 X-0.1359 Y2.2907  
G01 X-0.1423 Y2.2843  
G01 X-0.1443 Y2.2816  
G01 X-0.2340 Y2.3714  
G01 X-0.2385 Y2.3744  
G01 X-0.2436 Y2.3764  
G01 X-0.2489 Y2.3775  
G01 X-0.7027 Y2.3775  
G01 X-0.7080 Y2.3764  
G01 X-0.7130 Y2.3744  
G01 X-0.7175 Y2.3714  
G01 X-0.7214 Y2.3675  
G01 X-0.7614 Y2.3275  
G01 X-0.8952 Y2.3275  
G01 X-0.8966 Y2.3289  
G01 X-0.9027 Y2.3330  
G01 X-0.9095 Y2.3358  
G01 X-0.9167 Y2.3372  
G01 X-0.9833 Y2.3372  
G01 X-0.9905 Y2.3358  
G01 X-0.9973 Y2.3330  
G01 X-1.0034 Y2.3289  
G01 X-1.0048 Y2.3275  
G01 X-1.2827 Y2.3275  
G01 X-1.2880 Y2.3264  
G01 X-1.2930 Y2.3244  
G01 X-1.2943 Y2.3235  
G01 X-1.3035 Y2.3235  
G01 X-1.3104 Y2.3258  
G01 X-1.3120 Y2.3264  
G01 X-1.3129 Y2.3266  
G01 X-1.3139 Y2.3269  
G01 X-1.3156 Y2.3272  
G01 X-1.3173 Y2.3275  
G01 X-1.3183 Y2.3275  
G01 X-1.3192 Y2.3276  
G01 X-1.3210 Y2.3275  
G01 X-1.4221 Y2.3275  
G01 X-1.4767 Y2.3928  
G01 X-1.4774 Y2.3938  
G01 X-1.4784 Y2.3948  
G01 X-1.4794 Y2.3960  
G01 X-1.4803 Y2.3967  
G01 X-1.4812 Y2.3976  
G01 X-1.4825 Y2.3984  
G01 X-1.4836 Y2.3994  
G01 X-1.4847 Y2.3999  
G01 X-1.4857 Y2.4006  
G01 X-1.4871 Y2.4012  
G01 X-1.4884 Y2.4019  
G01 X-1.4896 Y2.4022  
G01 X-1.4907 Y2.4027  
G01 X-1.4922 Y2.4030  
G01 X-1.4936 Y2.4034  
G01 X-1.4948 Y2.4035  
G01 X-1.4960 Y2.4037  
G01 X-1.4975 Y2.4037  
G01 X-1.4990 Y2.4039  
G01 X-1.5002 Y2.4037  
G01 X-3.6390 Y2.4037  
G01 X-3.6443 Y2.4027  
G01 X-3.6493 Y2.4006  
G01 X-3.6538 Y2.3976  
G01 X-3.6988 Y2.3526  
G01 X-3.7026 Y2.3488  
G01 X-3.7056 Y2.3443  
G01 X-3.7077 Y2.3393  
G01 X-3.7087 Y2.3340  
G01 X-3.7087 Y2.2660  
G01 X-3.7077 Y2.2607  
G01 X-3.7056 Y2.2557  
G01 X-3.7026 Y2.2512  
G01 X-3.6445 Y2.1931  
G01 X-3.6445 Y2.1816  
G01 X-3.6375 Y2.1746  
G01 X-3.6375 Y2.1254  
G01 X-3.6445 Y2.1184  
G01 X-3.6445 Y2.0816  
G01 X-3.6375 Y2.0746  
G01 X-3.6375 Y2.0254  
G01 X-3.6445 Y2.0184  
G01 X-3.6445 Y2.0121  
G01 X-3.7785 Y1.9502  
G01 X-3.7805 Y1.9494  
G01 X-3.7810 Y1.9491  
G01 X-3.7815 Y1.9488  
G01 X-3.7832 Y1.9476  
G01 X-3.7850 Y1.9464  
G01 X-3.7854 Y1.9460  
G01 X-3.7859 Y1.9456  
G01 X-3.7873 Y1.9441  
G01 X-3.7889 Y1.9425  
G01 X-3.7892 Y1.9421  
G01 X-3.7895 Y1.9417  
G01 X-3.7907 Y1.9398  
G01 X-3.7919 Y1.9380  
G01 X-3.7921 Y1.9375  
G01 X-3.7924 Y1.9370  
G01 X-3.7931 Y1.9350  
G01 X-3.7939 Y1.9330  
G01 X-3.7941 Y1.9325  
G01 X-3.7942 Y1.9320  
G01 X-3.7946 Y1.9298  
G01 X-3.7950 Y1.9277  
G01 X-3.7950 Y1.9272  
G01 X-3.7951 Y1.9266  
G01 X-3.7950 Y1.9244  
G01 X-3.7950 Y1.2464  
G01 X-3.7950 Y1.2436  
G01 X-3.7950 Y1.2410  
G01 X-3.7938 Y1.0630  
G01 X-3.7961 Y1.0033  
G01 X-3.7962 Y1.0027  
G01 X-3.7962 Y1.0005  
G01 X-3.7963 Y0.9984  
G01 X-3.7962 Y0.9978  
G01 X-3.7962 Y0.2973  
G01 X-3.7952 Y0.2920  
G01 X-3.7931 Y0.2870  
G01 X-3.7901 Y0.2825  
G01 X-3.7863 Y0.2786  
G01 X-3.5212 Y0.0135  
G01 X-3.5210 Y0.0133  
G01 X-3.5193 Y0.0116  
G01 X-3.5175 Y0.0099  
G01 X-3.5173 Y0.0097  
G01 X-3.5171 Y0.0096  
G01 X-3.5151 Y0.0082  
G01 X-3.5130 Y0.0069  
G01 X-3.5128 Y0.0068  
G01 X-3.5126 Y0.0066  
G01 X-3.5103 Y0.0057  
G01 X-3.5080 Y0.0048  
G01 X-3.5078 Y0.0048  
G01 X-3.5075 Y0.0047  
G01 X-3.5051 Y0.0042  
G01 X-3.5027 Y0.0037  
G01 X-3.5025 Y0.0037  
G01 X-3.5022 Y0.0037  
G01 X-3.4997 Y0.0037  
G01 X-3.4973 Y0.0037  
G01 X-3.4970 Y0.0038  
G01 X-2.4909 Y0.0225  
G01 X-2.4897 Y0.0224  
G01 X-2.4882 Y0.0225  
G01 X-2.4868 Y0.0226  
G01 X-2.4856 Y0.0228  
G01 X-2.4843 Y0.0230  
G01 X-2.4829 Y0.0234  
G01 X-2.4815 Y0.0237  
G01 X-2.4803 Y0.0242  
G01 X-2.4791 Y0.0246  
G01 X-2.4779 Y0.0253  
G01 X-2.4765 Y0.0259  
G01 X-2.4755 Y0.0266  
G01 X-2.4744 Y0.0272  
G01 X-2.4733 Y0.0281  
G01 X-2.4721 Y0.0290  
G01 X-2.4712 Y0.0299  
G01 X-2.3712 Y0.1138  
G01 X-2.1716 Y0.1138  
G01 X-2.1704 Y0.1136  
G01 X-2.1689 Y0.1138  
G01 X-2.1673 Y0.1138  
G01 X-2.1662 Y0.1140  
G01 X-2.0483 Y0.1238  
G01 X-2.0293 Y0.1246  
G01 X-2.0268 Y0.1236  
G01 X-2.0215 Y0.1225  
G01 X-1.3473 Y0.1225  
G01 X-1.3420 Y0.1236  
G01 X-1.3370 Y0.1256  
G01 X-1.3325 Y0.1286  
G01 X-1.2486 Y0.2125  
G01 X-1.2456 Y0.2170  
G01 X-1.2436 Y0.2220  
G01 X-1.2425 Y0.2273  
G01 X-1.2425 Y0.2501  
G01 X-1.2365 Y0.2561  
G01 X-1.2365 Y0.2839  
G01 X-1.2561 Y0.3035  
G01 X-1.2771 Y0.3035  
G01 X-1.3229 Y0.3493  
G01 X-1.3588 Y0.3971  
G01 X-1.3599 Y0.3988  
G01 X-1.3604 Y0.3993  
G01 X-1.3609 Y0.3999  
G01 X-1.3623 Y0.4012  
G01 X-1.4061 Y0.4450  
G01 X-1.4057 Y0.4457  
G01 X-1.4056 Y0.4461  
G01 X-1.4054 Y0.4464  
G01 X-1.4048 Y0.4487  
G01 X-1.3740 Y0.5509  
G00 Z0.0500  
G00 X-1.4665 Y0.5961  
G01 Z-0.0035 F10    
G01 X-1.4665 Y0.6239  F20    
G01 X-1.4861 Y0.6435  
G01 X-1.5139 Y0.6435  
G01 X-1.5199 Y0.6375  
G01 X-1.5486 Y0.6375  
G01 X-1.5670 Y0.6559  
G01 X-1.5678 Y0.6598  
G01 X-1.5703 Y0.6659  
G01 X-1.5740 Y0.6714  
G01 X-1.5786 Y0.6760  
G01 X-1.5841 Y0.6797  
G01 X-1.5902 Y0.6822  
G01 X-1.5967 Y0.6835  
G01 X-1.6033 Y0.6835  
G01 X-1.6098 Y0.6822  
G01 X-1.6159 Y0.6797  
G01 X-1.6214 Y0.6760  
G01 X-1.6260 Y0.6714  
G01 X-1.6297 Y0.6659  
G01 X-1.6322 Y0.6598  
G01 X-1.6335 Y0.6533  
G01 X-1.6335 Y0.6467  
G01 X-1.6322 Y0.6402  
G01 X-1.6297 Y0.6341  
G01 X-1.6260 Y0.6286  
G01 X-1.6254 Y0.6280  
G01 X-1.6314 Y0.5560  
G01 X-1.6435 Y0.5439  
G01 X-1.6435 Y0.5161  
G01 X-1.6287 Y0.5013  
G01 X-1.6235 Y0.4729  
G01 X-1.6235 Y0.4724  
G01 X-1.6332 Y0.4627  
G01 X-1.6332 Y0.4351  
G01 X-1.6138 Y0.4156  
G01 X-1.5862 Y0.4156  
G01 X-1.5668 Y0.4351  
G01 X-1.5668 Y0.4627  
G01 X-1.5672 Y0.4631  
G01 X-1.5667 Y0.4639  
G01 X-1.5649 Y0.4681  
G01 X-1.5640 Y0.4727  
G01 X-1.5640 Y0.4773  
G01 X-1.5649 Y0.4819  
G01 X-1.5667 Y0.4861  
G01 X-1.5692 Y0.4900  
G01 X-1.5725 Y0.4933  
G01 X-1.5764 Y0.4958  
G01 X-1.5802 Y0.4974  
G01 X-1.5825 Y0.5101  
G01 X-1.5765 Y0.5161  
G01 X-1.5765 Y0.5439  
G01 X-1.5846 Y0.5520  
G01 X-1.5812 Y0.5923  
G01 X-1.5775 Y0.5886  
G01 X-1.5730 Y0.5856  
G01 X-1.5680 Y0.5836  
G01 X-1.5627 Y0.5825  
G01 X-1.5199 Y0.5825  
G01 X-1.5139 Y0.5765  
G01 X-1.4861 Y0.5765  
G01 X-1.4665 Y0.5961  
G00 Z0.0500  
G00 X-1.6740 Y0.6286  
G01 Z-0.0035 F10    
G01 X-1.6703 Y0.6341  F20    
G01 X-1.6678 Y0.6402  
G01 X-1.6665 Y0.6467  
G01 X-1.6665 Y0.6533  
G01 X-1.6678 Y0.6598  
G01 X-1.6703 Y0.6659  
G01 X-1.6740 Y0.6714  
G01 X-1.6786 Y0.6760  
G01 X-1.6841 Y0.6797  
G01 X-1.6902 Y0.6822  
G01 X-1.6967 Y0.6835  
G01 X-1.7033 Y0.6835  
G01 X-1.7098 Y0.6822  
G01 X-1.7159 Y0.6797  
G01 X-1.7214 Y0.6760  
G01 X-1.7260 Y0.6714  
G01 X-1.7297 Y0.6659  
G01 X-1.7322 Y0.6598  
G01 X-1.7335 Y0.6533  
G01 X-1.7335 Y0.6467  
G01 X-1.7322 Y0.6402  
G01 X-1.7297 Y0.6341  
G01 X-1.7260 Y0.6286  
G01 X-1.7254 Y0.6280  
G01 X-1.7314 Y0.5560  
G01 X-1.7435 Y0.5439  
G01 X-1.7435 Y0.5161  
G01 X-1.7432 Y0.5158  
G01 X-1.7598 Y0.4821  
G01 X-1.7638 Y0.4821  
G01 X-1.7832 Y0.4627  
G01 X-1.7832 Y0.4351  
G01 X-1.7638 Y0.4156  
G01 X-1.7362 Y0.4156  
G01 X-1.7168 Y0.4351  
G01 X-1.7168 Y0.4627  
G01 X-1.7169 Y0.4628  
G01 X-1.7003 Y0.4965  
G01 X-1.6961 Y0.4965  
G01 X-1.6765 Y0.5161  
G01 X-1.6765 Y0.5439  
G01 X-1.6846 Y0.5520  
G01 X-1.6786 Y0.6240  
G01 X-1.6740 Y0.6286  
G00 Z0.0500  
G00 X-1.7740 Y0.6286  
G01 Z-0.0035 F10    
G01 X-1.7703 Y0.6341  F20    
G01 X-1.7678 Y0.6402  
G01 X-1.7665 Y0.6467  
G01 X-1.7665 Y0.6533  
G01 X-1.7678 Y0.6598  
G01 X-1.7703 Y0.6659  
G01 X-1.7740 Y0.6714  
G01 X-1.7786 Y0.6760  
G01 X-1.7841 Y0.6797  
G01 X-1.7902 Y0.6822  
G01 X-1.7967 Y0.6835  
G01 X-1.8033 Y0.6835  
G01 X-1.8098 Y0.6822  
G01 X-1.8159 Y0.6797  
G01 X-1.8214 Y0.6760  
G01 X-1.8260 Y0.6714  
G01 X-1.8297 Y0.6659  
G01 X-1.8322 Y0.6598  
G01 X-1.8335 Y0.6533  
G01 X-1.8335 Y0.6467  
G01 X-1.8322 Y0.6402  
G01 X-1.8301 Y0.6352  
G01 X-1.8621 Y0.5885  
G01 X-1.8625 Y0.5881  
G01 X-1.8634 Y0.5866  
G01 X-1.8644 Y0.5851  
G01 X-1.8647 Y0.5846  
G01 X-1.9584 Y0.4335  
G01 X-1.9639 Y0.4335  
G01 X-1.9835 Y0.4139  
G01 X-1.9835 Y0.3861  
G01 X-1.9735 Y0.3761  
G01 X-1.9735 Y0.2939  
G01 X-1.9835 Y0.2839  
G01 X-1.9835 Y0.2561  
G01 X-1.9639 Y0.2365  
G01 X-1.9361 Y0.2365  
G01 X-1.9165 Y0.2561  
G01 X-1.9165 Y0.2839  
G01 X-1.9265 Y0.2939  
G01 X-1.9265 Y0.3761  
G01 X-1.9165 Y0.3861  
G01 X-1.9165 Y0.4119  
G01 X-1.8241 Y0.5609  
G01 X-1.7826 Y0.6213  
G01 X-1.7786 Y0.6240  
G01 X-1.7740 Y0.6286  
G00 Z0.0500  
G00 X-1.8740 Y0.6286  
G01 Z-0.0035 F10    
G01 X-1.8703 Y0.6341  F20    
G01 X-1.8678 Y0.6402  
G01 X-1.8665 Y0.6467  
G01 X-1.8665 Y0.6533  
G01 X-1.8678 Y0.6598  
G01 X-1.8703 Y0.6659  
G01 X-1.8740 Y0.6714  
G01 X-1.8786 Y0.6760  
G01 X-1.8841 Y0.6797  
G01 X-1.8902 Y0.6822  
G01 X-1.8967 Y0.6835  
G01 X-1.9033 Y0.6835  
G01 X-1.9098 Y0.6822  
G01 X-1.9159 Y0.6797  
G01 X-1.9214 Y0.6760  
G01 X-1.9239 Y0.6735  
G01 X-2.0387 Y0.6735  
G01 X-2.0665 Y0.7084  
G01 X-2.0665 Y0.7139  
G01 X-2.0827 Y0.7301  
G01 X-2.0827 Y0.7920  
G01 X-2.0827 Y0.7925  
G01 X-2.0827 Y0.7943  
G01 X-2.0827 Y0.7961  
G01 X-2.0829 Y0.7966  
G01 X-2.0829 Y0.7971  
G01 X-2.0833 Y0.7988  
G01 X-2.0837 Y0.8006  
G01 X-2.0839 Y0.8011  
G01 X-2.0840 Y0.8016  
G01 X-2.0847 Y0.8032  
G01 X-2.0854 Y0.8049  
G01 X-2.0857 Y0.8053  
G01 X-2.0859 Y0.8058  
G01 X-2.0870 Y0.8072  
G01 X-2.0880 Y0.8087  
G01 X-2.0884 Y0.8091  
G01 X-2.2808 Y1.0710  
G01 X-2.2817 Y1.0725  
G01 X-2.2821 Y1.0729  
G01 X-2.2824 Y1.0733  
G01 X-2.2838 Y1.0745  
G01 X-2.2850 Y1.0758  
G01 X-2.2855 Y1.0760  
G01 X-2.2858 Y1.0764  
G01 X-2.2874 Y1.0773  
G01 X-2.2889 Y1.0783  
G01 X-2.2894 Y1.0785  
G01 X-2.2898 Y1.0788  
G01 X-2.2915 Y1.0794  
G01 X-2.2931 Y1.0801  
G01 X-2.2937 Y1.0802  
G01 X-2.2942 Y1.0804  
G01 X-2.2959 Y1.0807  
G01 X-2.2977 Y1.0810  
G01 X-2.2982 Y1.0810  
G01 X-2.2987 Y1.0811  
G01 X-2.3005 Y1.0810  
G01 X-2.6014 Y1.0810  
G01 X-2.7740 Y1.2260  
G01 X-2.7740 Y1.5488  
G01 X-2.7227 Y1.6090  
G01 X-2.7217 Y1.6100  
G01 X-2.7212 Y1.6108  
G01 X-2.7206 Y1.6115  
G01 X-2.7199 Y1.6127  
G01 X-2.7192 Y1.6139  
G01 X-2.7188 Y1.6147  
G01 X-2.7184 Y1.6156  
G01 X-2.7179 Y1.6169  
G01 X-2.7174 Y1.6181  
G01 X-2.7172 Y1.6191  
G01 X-2.7169 Y1.6200  
G01 X-2.7168 Y1.6213  
G01 X-2.7165 Y1.6227  
G01 X-2.7165 Y1.6236  
G01 X-2.7164 Y1.6246  
G01 X-2.7165 Y1.6259  
G01 X-2.7165 Y1.6790  
G01 X-2.7165 Y1.6813  
G01 X-2.7165 Y1.6836  
G01 X-2.7170 Y1.7574  
G01 X-2.6665 Y1.7553  
G01 X-2.6661 Y1.7552  
G01 X-2.6642 Y1.7552  
G01 X-2.6624 Y1.7552  
G01 X-2.6619 Y1.7552  
G01 X-2.3882 Y1.7552  
G01 X-2.2816 Y1.6866  
G01 X-2.2799 Y1.6854  
G01 X-2.2797 Y1.6853  
G01 X-2.2795 Y1.6852  
G01 X-2.2776 Y1.6845  
G01 X-2.2756 Y1.6837  
G01 X-2.2754 Y1.6836  
G01 X-2.2752 Y1.6835  
G01 X-2.2731 Y1.6832  
G01 X-2.2711 Y1.6827  
G01 X-2.2709 Y1.6827  
G01 X-2.2707 Y1.6827  
G01 X-2.2686 Y1.6827  
G01 X-1.8801 Y1.6827  
G01 X-1.8639 Y1.6665  
G01 X-1.8361 Y1.6665  
G01 X-1.8165 Y1.6861  
G01 X-1.8165 Y1.7003  
G01 X-1.7403 Y1.7765  
G01 X-1.7239 Y1.7765  
G01 X-1.7214 Y1.7740  
G01 X-1.7159 Y1.7703  
G01 X-1.7098 Y1.7678  
G01 X-1.7033 Y1.7665  
G01 X-1.6967 Y1.7665  
G01 X-1.6902 Y1.7678  
G01 X-1.6841 Y1.7703  
G01 X-1.6786 Y1.7740  
G01 X-1.6740 Y1.7786  
G01 X-1.6703 Y1.7841  
G01 X-1.6678 Y1.7902  
G01 X-1.6665 Y1.7967  
G01 X-1.6665 Y1.8033  
G01 X-1.6678 Y1.8098  
G01 X-1.6703 Y1.8159  
G01 X-1.6740 Y1.8214  
G01 X-1.6786 Y1.8260  
G01 X-1.6841 Y1.8297  
G01 X-1.6902 Y1.8322  
G01 X-1.6967 Y1.8335  
G01 X-1.7033 Y1.8335  
G01 X-1.7098 Y1.8322  
G01 X-1.7159 Y1.8297  
G01 X-1.7214 Y1.8260  
G01 X-1.7239 Y1.8235  
G01 X-1.7523 Y1.8235  
G01 X-1.7569 Y1.8226  
G01 X-1.7611 Y1.8208  
G01 X-1.7650 Y1.8183  
G01 X-1.8497 Y1.7335  
G01 X-1.8639 Y1.7335  
G01 X-1.8676 Y1.7297  
G01 X-2.2618 Y1.7297  
G01 X-2.3684 Y1.7984  
G01 X-2.3701 Y1.7996  
G01 X-2.3703 Y1.7997  
G01 X-2.3705 Y1.7998  
G01 X-2.3724 Y1.8005  
G01 X-2.3744 Y1.8013  
G01 X-2.3746 Y1.8014  
G01 X-2.3748 Y1.8015  
G01 X-2.3769 Y1.8018  
G01 X-2.3789 Y1.8022  
G01 X-2.3791 Y1.8022  
G01 X-2.3793 Y1.8023  
G01 X-2.3814 Y1.8022  
G01 X-2.6633 Y1.8022  
G01 X-2.7376 Y1.8053  
G01 X-2.7377 Y1.8053  
G01 X-2.7381 Y1.8053  
G01 X-2.7385 Y1.8054  
G01 X-2.7402 Y1.8054  
G01 X-2.7420 Y1.8054  
G01 X-2.7422 Y1.8054  
G01 X-2.9724 Y1.8109  
G01 X-2.9727 Y1.8110  
G01 X-2.9747 Y1.8110  
G01 X-2.9768 Y1.8110  
G01 X-2.9770 Y1.8110  
G01 X-3.0688 Y1.8110  
G01 X-3.1665 Y1.9547  
G01 X-3.1665 Y1.9639  
G01 X-3.1725 Y1.9699  
G01 X-3.1725 Y2.0886  
G01 X-3.1446 Y2.1165  
G01 X-3.1361 Y2.1165  
G01 X-3.1165 Y2.1361  
G01 X-3.1165 Y2.1639  
G01 X-3.1361 Y2.1835  
G01 X-3.1639 Y2.1835  
G01 X-3.1699 Y2.1775  
G01 X-3.2386 Y2.1775  
G01 X-3.3786 Y2.3175  
G01 X-3.3825 Y2.3214  
G01 X-3.3870 Y2.3244  
G01 X-3.3920 Y2.3264  
G01 X-3.3973 Y2.3275  
G01 X-3.4646 Y2.3275  
G01 X-3.4816 Y2.3445  
G01 X-3.5184 Y2.3445  
G01 X-3.5394 Y2.3235  
G01 X-3.5606 Y2.3235  
G01 X-3.5816 Y2.3445  
G01 X-3.6184 Y2.3445  
G01 X-3.6445 Y2.3184  
G01 X-3.6445 Y2.2816  
G01 X-3.6184 Y2.2555  
G01 X-3.5816 Y2.2555  
G01 X-3.5606 Y2.2765  
G01 X-3.5394 Y2.2765  
G01 X-3.5184 Y2.2555  
G01 X-3.4816 Y2.2555  
G01 X-3.4646 Y2.2725  
G01 X-3.4114 Y2.2725  
G01 X-3.2714 Y2.1325  
G01 X-3.2675 Y2.1286  
G01 X-3.2630 Y2.1256  
G01 X-3.2580 Y2.1236  
G01 X-3.2527 Y2.1225  
G01 X-3.2164 Y2.1225  
G01 X-3.2214 Y2.1175  
G01 X-3.2244 Y2.1130  
G01 X-3.2264 Y2.1080  
G01 X-3.2275 Y2.1027  
G01 X-3.2275 Y1.9699  
G01 X-3.2335 Y1.9639  
G01 X-3.2335 Y1.9361  
G01 X-3.2139 Y1.9165  
G01 X-3.1974 Y1.9165  
G01 X-3.1007 Y1.7744  
G01 X-3.0995 Y1.7725  
G01 X-3.0994 Y1.7724  
G01 X-3.0978 Y1.7708  
G01 X-3.0962 Y1.7692  
G01 X-3.0961 Y1.7691  
G01 X-3.0942 Y1.7679  
G01 X-3.0924 Y1.7667  
G01 X-3.0922 Y1.7666  
G01 X-3.0902 Y1.7658  
G01 X-3.0881 Y1.7649  
G01 X-3.0879 Y1.7648  
G01 X-3.0857 Y1.7644  
G01 X-3.0836 Y1.7640  
G01 X-3.0834 Y1.7640  
G01 X-3.0811 Y1.7640  
G01 X-2.9753 Y1.7640  
G01 X-2.7640 Y1.7589  
G01 X-2.7635 Y1.6812  
G01 X-2.7635 Y1.6337  
G01 X-2.8148 Y1.5735  
G01 X-2.8158 Y1.5725  
G01 X-2.8163 Y1.5717  
G01 X-2.8169 Y1.5710  
G01 X-2.8176 Y1.5698  
G01 X-2.8183 Y1.5686  
G01 X-2.8187 Y1.5678  
G01 X-2.8191 Y1.5669  
G01 X-2.8196 Y1.5656  
G01 X-2.8201 Y1.5644  
G01 X-2.8203 Y1.5634  
G01 X-2.8206 Y1.5625  
G01 X-2.8207 Y1.5612  
G01 X-2.8210 Y1.5598  
G01 X-2.8210 Y1.5589  
G01 X-2.8211 Y1.5579  
G01 X-2.8210 Y1.5566  
G01 X-2.8210 Y1.2163  
G01 X-2.8211 Y1.2153  
G01 X-2.8210 Y1.2140  
G01 X-2.8210 Y1.2127  
G01 X-2.8208 Y1.2117  
G01 X-2.8207 Y1.2107  
G01 X-2.8203 Y1.2094  
G01 X-2.8201 Y1.2081  
G01 X-2.8197 Y1.2072  
G01 X-2.8194 Y1.2062  
G01 X-2.8188 Y1.2051  
G01 X-2.8183 Y1.2039  
G01 X-2.8178 Y1.2030  
G01 X-2.8173 Y1.2021  
G01 X-2.8165 Y1.2011  
G01 X-2.8158 Y1.2000  
G01 X-2.8150 Y1.1993  
G01 X-2.8144 Y1.1985  
G01 X-2.8134 Y1.1977  
G01 X-2.8125 Y1.1967  
G01 X-2.8116 Y1.1962  
G01 X-2.6259 Y1.0402  
G01 X-2.6250 Y1.0392  
G01 X-2.6241 Y1.0387  
G01 X-2.6233 Y1.0380  
G01 X-2.6222 Y1.0374  
G01 X-2.6211 Y1.0367  
G01 X-2.6202 Y1.0363  
G01 X-2.6193 Y1.0358  
G01 X-2.6181 Y1.0354  
G01 X-2.6169 Y1.0349  
G01 X-2.6158 Y1.0347  
G01 X-2.6149 Y1.0344  
G01 X-2.6136 Y1.0343  
G01 X-2.6123 Y1.0340  
G01 X-2.6113 Y1.0340  
G01 X-2.6103 Y1.0339  
G01 X-2.6090 Y1.0340  
G01 X-2.3119 Y1.0340  
G01 X-2.1297 Y0.7860  
G01 X-2.1297 Y0.7235  
G01 X-2.1307 Y0.7235  
G01 X-2.1320 Y0.7233  
G01 X-2.1334 Y0.7231  
G01 X-2.1343 Y0.7229  
G01 X-2.1352 Y0.7227  
G01 X-2.1365 Y0.7222  
G01 X-2.1378 Y0.7218  
G01 X-2.1387 Y0.7213  
G01 X-2.1395 Y0.7210  
G01 X-2.1407 Y0.7203  
G01 X-2.1419 Y0.7196  
G01 X-2.1426 Y0.7190  
G01 X-2.1434 Y0.7185  
G01 X-2.1444 Y0.7175  
G01 X-2.2463 Y0.6335  
G01 X-2.2639 Y0.6335  
G01 X-2.2835 Y0.6139  
G01 X-2.2835 Y0.5861  
G01 X-2.2639 Y0.5665  
G01 X-2.2361 Y0.5665  
G01 X-2.2165 Y0.5861  
G01 X-2.2165 Y0.5972  
G01 X-2.1223 Y0.6749  
G01 X-2.1139 Y0.6665  
G01 X-2.0932 Y0.6665  
G01 X-2.0690 Y0.6361  
G01 X-2.0683 Y0.6350  
G01 X-2.0675 Y0.6343  
G01 X-2.0669 Y0.6335  
G01 X-2.0659 Y0.6327  
G01 X-2.0650 Y0.6317  
G01 X-2.0642 Y0.6312  
G01 X-2.0634 Y0.6306  
G01 X-2.0622 Y0.6299  
G01 X-2.0611 Y0.6292  
G01 X-2.0602 Y0.6288  
G01 X-2.0593 Y0.6283  
G01 X-2.0581 Y0.6279  
G01 X-2.0569 Y0.6274  
G01 X-2.0559 Y0.6272  
G01 X-2.0549 Y0.6269  
G01 X-2.0536 Y0.6268  
G01 X-2.0523 Y0.6265  
G01 X-2.0513 Y0.6265  
G01 X-2.0503 Y0.6264  
G01 X-2.0490 Y0.6265  
G01 X-1.9239 Y0.6265  
G01 X-1.9214 Y0.6240  
G01 X-1.9159 Y0.6203  
G01 X-1.9098 Y0.6178  
G01 X-1.9033 Y0.6165  
G01 X-1.8967 Y0.6165  
G01 X-1.8902 Y0.6178  
G01 X-1.8841 Y0.6203  
G01 X-1.8786 Y0.6240  
G01 X-1.8740 Y0.6286  
G00 Z0.0500  
G00 X-1.8740 Y0.9286  
G01 Z-0.0035 F10    
G01 X-1.8703 Y0.9341  F20    
G01 X-1.8678 Y0.9402  
G01 X-1.8665 Y0.9467  
G01 X-1.8665 Y0.9533  
G01 X-1.8678 Y0.9598  
G01 X-1.8703 Y0.9659  
G01 X-1.8740 Y0.9714  
G01 X-1.8765 Y0.9739  
G01 X-1.8765 Y1.2528  
G01 X-1.8728 Y1.2565  
G01 X-1.8561 Y1.2565  
G01 X-1.8365 Y1.2761  
G01 X-1.8365 Y1.3039  
G01 X-1.8561 Y1.3235  
G01 X-1.8839 Y1.3235  
G01 X-1.9035 Y1.3039  
G01 X-1.9035 Y1.2922  
G01 X-1.9097 Y1.2860  
G01 X-1.9486 Y1.2860  
G01 X-1.9561 Y1.2935  
G01 X-1.9839 Y1.2935  
G01 X-2.0035 Y1.2739  
G01 X-2.0035 Y1.2461  
G01 X-1.9839 Y1.2265  
G01 X-1.9561 Y1.2265  
G01 X-1.9436 Y1.2390  
G01 X-1.9235 Y1.2390  
G01 X-1.9235 Y0.9739  
G01 X-1.9260 Y0.9714  
G01 X-1.9297 Y0.9659  
G01 X-1.9322 Y0.9598  
G01 X-1.9335 Y0.9533  
G01 X-1.9335 Y0.9467  
G01 X-1.9322 Y0.9402  
G01 X-1.9297 Y0.9341  
G01 X-1.9260 Y0.9286  
G01 X-1.9214 Y0.9240  
G01 X-1.9159 Y0.9203  
G01 X-1.9098 Y0.9178  
G01 X-1.9033 Y0.9165  
G01 X-1.8967 Y0.9165  
G01 X-1.8902 Y0.9178  
G01 X-1.8841 Y0.9203  
G01 X-1.8786 Y0.9240  
G01 X-1.8740 Y0.9286  
G00 Z0.0500  
G00 X-1.8260 Y0.9286  
G01 Z-0.0035 F10    
G01 X-1.8214 Y0.9240  F20    
G01 X-1.8159 Y0.9203  
G01 X-1.8098 Y0.9178  
G01 X-1.8033 Y0.9165  
G01 X-1.7967 Y0.9165  
G01 X-1.7902 Y0.9178  
G01 X-1.7841 Y0.9203  
G01 X-1.7786 Y0.9240  
G01 X-1.7740 Y0.9286  
G01 X-1.7703 Y0.9341  
G01 X-1.7678 Y0.9402  
G01 X-1.7665 Y0.9467  
G01 X-1.7665 Y0.9533  
G01 X-1.7678 Y0.9598  
G01 X-1.7703 Y0.9659  
G01 X-1.7740 Y0.9714  
G01 X-1.7765 Y0.9739  
G01 X-1.7765 Y1.0398  
G01 X-1.7766 Y1.0402  
G01 X-1.7003 Y1.1165  
G01 X-1.6861 Y1.1165  
G01 X-1.6665 Y1.1361  
G01 X-1.6665 Y1.1639  
G01 X-1.6861 Y1.1835  
G01 X-1.7139 Y1.1835  
G01 X-1.7335 Y1.1639  
G01 X-1.7335 Y1.1497  
G01 X-1.7979 Y1.0853  
G01 X-1.8061 Y1.0935  
G01 X-1.8339 Y1.0935  
G01 X-1.8535 Y1.0739  
G01 X-1.8535 Y1.0461  
G01 X-1.8339 Y1.0265  
G01 X-1.8235 Y1.0265  
G01 X-1.8235 Y0.9739  
G01 X-1.8260 Y0.9714  
G01 X-1.8297 Y0.9659  
G01 X-1.8322 Y0.9598  
G01 X-1.8335 Y0.9533  
G01 X-1.8335 Y0.9467  
G01 X-1.8322 Y0.9402  
G01 X-1.8297 Y0.9341  
G01 X-1.8260 Y0.9286  
G00 Z0.0500  
G00 X-1.7260 Y0.9286  
G01 Z-0.0035 F10    
G01 X-1.7214 Y0.9240  F20    
G01 X-1.7159 Y0.9203  
G01 X-1.7098 Y0.9178  
G01 X-1.7033 Y0.9165  
G01 X-1.6967 Y0.9165  
G01 X-1.6902 Y0.9178  
G01 X-1.6841 Y0.9203  
G01 X-1.6786 Y0.9240  
G01 X-1.6740 Y0.9286  
G01 X-1.6703 Y0.9341  
G01 X-1.6678 Y0.9402  
G01 X-1.6665 Y0.9467  
G01 X-1.6665 Y0.9533  
G01 X-1.6678 Y0.9598  
G01 X-1.6703 Y0.9659  
G01 X-1.6740 Y0.9714  
G01 X-1.6753 Y0.9727  
G01 X-1.6215 Y1.0265  
G01 X-1.6142 Y1.0265  
G01 X-1.6135 Y1.0264  
G01 X-1.6119 Y1.0265  
G01 X-1.4239 Y1.0265  
G01 X-1.4139 Y1.0165  
G01 X-1.3861 Y1.0165  
G01 X-1.3665 Y1.0361  
G01 X-1.3665 Y1.0639  
G01 X-1.3861 Y1.0835  
G01 X-1.4139 Y1.0835  
G01 X-1.4239 Y1.0735  
G01 X-1.4395 Y1.0735  
G01 X-1.4414 Y1.1188  
G01 X-1.4415 Y1.1211  
G01 X-1.4416 Y1.1233  
G01 X-1.4416 Y1.1235  
G01 X-1.4422 Y1.1256  
G01 X-1.4427 Y1.1278  
G01 X-1.4511 Y1.1615  
G01 X-1.4465 Y1.1661  
G01 X-1.4465 Y1.1939  
G01 X-1.4661 Y1.2135  
G01 X-1.4939 Y1.2135  
G01 X-1.5135 Y1.1939  
G01 X-1.5135 Y1.1661  
G01 X-1.4965 Y1.1491  
G01 X-1.4884 Y1.1166  
G01 X-1.4865 Y1.0735  
G01 X-1.5765 Y1.0735  
G01 X-1.5765 Y1.1261  
G01 X-1.5665 Y1.1361  
G01 X-1.5665 Y1.1639  
G01 X-1.5861 Y1.1835  
G01 X-1.6139 Y1.1835  
G01 X-1.6335 Y1.1639  
G01 X-1.6335 Y1.1361  
G01 X-1.6235 Y1.1261  
G01 X-1.6235 Y1.0935  
G01 X-1.6339 Y1.0935  
G01 X-1.6535 Y1.0739  
G01 X-1.6535 Y1.0610  
G01 X-1.7183 Y0.9962  
G01 X-1.7208 Y0.9924  
G01 X-1.7226 Y0.9881  
G01 X-1.7235 Y0.9836  
G01 X-1.7235 Y0.9739  
G01 X-1.7260 Y0.9714  
G01 X-1.7297 Y0.9659  
G01 X-1.7322 Y0.9598  
G01 X-1.7335 Y0.9533  
G01 X-1.7335 Y0.9467  
G01 X-1.7322 Y0.9402  
G01 X-1.7297 Y0.9341  
G01 X-1.7260 Y0.9286  
G00 Z0.0500  
G00 X-1.6260 Y0.9286  
G01 Z-0.0035 F10    
G01 X-1.6214 Y0.9240  F20    
G01 X-1.6159 Y0.9203  
G01 X-1.6098 Y0.9178  
G01 X-1.6033 Y0.9165  
G01 X-1.5967 Y0.9165  
G01 X-1.5902 Y0.9178  
G01 X-1.5841 Y0.9203  
G01 X-1.5786 Y0.9240  
G01 X-1.5761 Y0.9265  
G01 X-1.4539 Y0.9265  
G01 X-1.4439 Y0.9165  
G01 X-1.4161 Y0.9165  
G01 X-1.4101 Y0.9225  
G01 X-1.3773 Y0.9225  
G01 X-1.3720 Y0.9236  
G01 X-1.3670 Y0.9256  
G01 X-1.3625 Y0.9286  
G01 X-1.3125 Y0.9786  
G01 X-1.3086 Y0.9825  
G01 X-1.3056 Y0.9870  
G01 X-1.3036 Y0.9920  
G01 X-1.3025 Y0.9973  
G01 X-1.3025 Y1.1476  
G01 X-1.3024 Y1.1479  
G01 X-1.3025 Y1.1503  
G01 X-1.3025 Y1.1527  
G01 X-1.3026 Y1.1530  
G01 X-1.3026 Y1.1533  
G01 X-1.3031 Y1.1557  
G01 X-1.3036 Y1.1580  
G01 X-1.3037 Y1.1583  
G01 X-1.3037 Y1.1586  
G01 X-1.3047 Y1.1608  
G01 X-1.3056 Y1.1630  
G01 X-1.3058 Y1.1633  
G01 X-1.3059 Y1.1636  
G01 X-1.3073 Y1.1655  
G01 X-1.3086 Y1.1675  
G01 X-1.3089 Y1.1677  
G01 X-1.3773 Y1.2655  
G01 X-1.3786 Y1.2675  
G01 X-1.3789 Y1.2677  
G01 X-1.3790 Y1.2680  
G01 X-1.3808 Y1.2697  
G01 X-1.3825 Y1.2714  
G01 X-1.3827 Y1.2715  
G01 X-1.3829 Y1.2717  
G01 X-1.3850 Y1.2730  
G01 X-1.3870 Y1.2744  
G01 X-1.3873 Y1.2745  
G01 X-1.3875 Y1.2746  
G01 X-1.3898 Y1.2755  
G01 X-1.3920 Y1.2764  
G01 X-1.3923 Y1.2765  
G01 X-1.3926 Y1.2766  
G01 X-1.3949 Y1.2770  
G01 X-1.3973 Y1.2775  
G01 X-1.3976 Y1.2775  
G01 X-1.3979 Y1.2776  
G01 X-1.4003 Y1.2775  
G01 X-1.7186 Y1.2775  
G01 X-1.7425 Y1.3014  
G01 X-1.7425 Y1.3627  
G01 X-1.7436 Y1.3680  
G01 X-1.7456 Y1.3730  
G01 X-1.7486 Y1.3775  
G01 X-1.7911 Y1.4200  
G01 X-1.7086 Y1.5025  
G01 X-1.6114 Y1.5025  
G01 X-1.5875 Y1.4786  
G01 X-1.5875 Y1.4473  
G01 X-1.5864 Y1.4420  
G01 X-1.5844 Y1.4370  
G01 X-1.5814 Y1.4325  
G01 X-1.5775 Y1.4286  
G01 X-1.5375 Y1.3886  
G01 X-1.5330 Y1.3856  
G01 X-1.5280 Y1.3836  
G01 X-1.5227 Y1.3825  
G01 X-1.4073 Y1.3825  
G01 X-1.4020 Y1.3836  
G01 X-1.3970 Y1.3856  
G01 X-1.3925 Y1.3886  
G01 X-1.3886 Y1.3925  
G01 X-1.3551 Y1.4260  
G01 X-1.3168 Y1.4388  
G01 X-1.2848 Y1.4388  
G01 X-1.2820 Y1.4399  
G01 X-1.2799 Y1.4420  
G01 X-1.2788 Y1.4448  
G01 X-1.2788 Y1.4952  
G01 X-1.2799 Y1.4980  
G01 X-1.2820 Y1.5001  
G01 X-1.2848 Y1.5012  
G01 X-1.3352 Y1.5012  
G01 X-1.3380 Y1.5001  
G01 X-1.3401 Y1.4980  
G01 X-1.3412 Y1.4952  
G01 X-1.3412 Y1.4886  
G01 X-1.3771 Y1.4766  
G01 X-1.3780 Y1.4764  
G01 X-1.3796 Y1.4758  
G01 X-1.3813 Y1.4752  
G01 X-1.3821 Y1.4747  
G01 X-1.3830 Y1.4744  
G01 X-1.3845 Y1.4734  
G01 X-1.3860 Y1.4725  
G01 X-1.3867 Y1.4719  
G01 X-1.3875 Y1.4714  
G01 X-1.3888 Y1.4701  
G01 X-1.3901 Y1.4690  
G01 X-1.3907 Y1.4682  
G01 X-1.4214 Y1.4375  
G01 X-1.5086 Y1.4375  
G01 X-1.5325 Y1.4614  
G01 X-1.5325 Y1.4927  
G01 X-1.5336 Y1.4980  
G01 X-1.5356 Y1.5030  
G01 X-1.5386 Y1.5075  
G01 X-1.5786 Y1.5475  
G01 X-1.5825 Y1.5514  
G01 X-1.5870 Y1.5544  
G01 X-1.5920 Y1.5564  
G01 X-1.5973 Y1.5575  
G01 X-1.7227 Y1.5575  
G01 X-1.7280 Y1.5564  
G01 X-1.7330 Y1.5544  
G01 X-1.7375 Y1.5514  
G01 X-1.8414 Y1.4475  
G01 X-1.9527 Y1.4475  
G01 X-1.9580 Y1.4464  
G01 X-1.9630 Y1.4444  
G01 X-1.9675 Y1.4414  
G01 X-2.0775 Y1.3314  
G01 X-2.0814 Y1.3275  
G01 X-2.0844 Y1.3230  
G01 X-2.0864 Y1.3180  
G01 X-2.0875 Y1.3127  
G01 X-2.0875 Y1.1600  
G01 X-2.0875 Y1.1573  
G01 X-2.0870 Y1.1546  
G01 X-2.0865 Y1.1520  
G01 X-2.0854 Y1.1495  
G01 X-2.0844 Y1.1470  
G01 X-2.0829 Y1.1448  
G01 X-2.0512 Y1.0973  
G01 X-2.0512 Y1.0748  
G01 X-2.0501 Y1.0720  
G01 X-2.0480 Y1.0699  
G01 X-2.0452 Y1.0688  
G01 X-1.9948 Y1.0688  
G01 X-1.9920 Y1.0699  
G01 X-1.9899 Y1.0720  
G01 X-1.9888 Y1.0748  
G01 X-1.9888 Y1.1252  
G01 X-1.9899 Y1.1280  
G01 X-1.9920 Y1.1301  
G01 X-1.9948 Y1.1312  
G01 X-2.0078 Y1.1312  
G01 X-2.0325 Y1.1683  
G01 X-2.0325 Y1.2986  
G01 X-1.9386 Y1.3925  
G01 X-1.8414 Y1.3925  
G01 X-1.7975 Y1.3486  
G01 X-1.7975 Y1.2873  
G01 X-1.7964 Y1.2820  
G01 X-1.7944 Y1.2770  
G01 X-1.7914 Y1.2725  
G01 X-1.7875 Y1.2686  
G01 X-1.7475 Y1.2286  
G01 X-1.7430 Y1.2256  
G01 X-1.7380 Y1.2236  
G01 X-1.7327 Y1.2225  
G01 X-1.4143 Y1.2225  
G01 X-1.3575 Y1.1413  
G01 X-1.3575 Y1.0114  
G01 X-1.3914 Y0.9775  
G01 X-1.4101 Y0.9775  
G01 X-1.4161 Y0.9835  
G01 X-1.4439 Y0.9835  
G01 X-1.4539 Y0.9735  
G01 X-1.5761 Y0.9735  
G01 X-1.5786 Y0.9760  
G01 X-1.5841 Y0.9797  
G01 X-1.5902 Y0.9822  
G01 X-1.5967 Y0.9835  
G01 X-1.6033 Y0.9835  
G01 X-1.6098 Y0.9822  
G01 X-1.6159 Y0.9797  
G01 X-1.6214 Y0.9760  
G01 X-1.6260 Y0.9714  
G01 X-1.6297 Y0.9659  
G01 X-1.6322 Y0.9598  
G01 X-1.6335 Y0.9533  
G01 X-1.6335 Y0.9467  
G01 X-1.6322 Y0.9402  
G01 X-1.6297 Y0.9341  
G01 X-1.6260 Y0.9286  
G00 Z0.0500  
G00 X-1.6138 Y0.3444  
G01 Z-0.0035 F10    
G01 X-1.6221 Y0.3360  F20    
G01 X-1.7279 Y0.3360  
G01 X-1.7362 Y0.3444  
G01 X-1.7638 Y0.3444  
G01 X-1.7832 Y0.3249  
G01 X-1.7832 Y0.2973  
G01 X-1.7638 Y0.2779  
G01 X-1.7362 Y0.2779  
G01 X-1.7251 Y0.2890  
G01 X-1.6249 Y0.2890  
G01 X-1.6138 Y0.2779  
G01 X-1.5862 Y0.2779  
G01 X-1.5831 Y0.2810  
G01 X-1.5300 Y0.2679  
G01 X-1.4835 Y0.2419  
G01 X-1.4835 Y0.2361  
G01 X-1.4639 Y0.2165  
G01 X-1.4361 Y0.2165  
G01 X-1.4165 Y0.2361  
G01 X-1.4165 Y0.2639  
G01 X-1.4361 Y0.2835  
G01 X-1.4617 Y0.2835  
G01 X-1.5085 Y0.3098  
G01 X-1.5092 Y0.3103  
G01 X-1.5105 Y0.3109  
G01 X-1.5118 Y0.3116  
G01 X-1.5126 Y0.3119  
G01 X-1.5134 Y0.3123  
G01 X-1.5148 Y0.3126  
G01 X-1.5162 Y0.3131  
G01 X-1.5170 Y0.3132  
G01 X-1.5674 Y0.3255  
G01 X-1.5862 Y0.3444  
G01 X-1.6138 Y0.3444  
G00 Z0.0500  
G00 X-2.1361 Y0.3035  
G01 Z-0.0035 F10    
G01 X-2.1639 Y0.3035  F20    
G01 X-2.1835 Y0.2839  
G01 X-2.1835 Y0.2712  
G01 X-2.2191 Y0.2385  
G01 X-2.4172 Y0.2385  
G01 X-2.4180 Y0.2386  
G01 X-2.4195 Y0.2385  
G01 X-2.4211 Y0.2385  
G01 X-2.4218 Y0.2383  
G01 X-2.4226 Y0.2383  
G01 X-2.4241 Y0.2379  
G01 X-2.4256 Y0.2376  
G01 X-2.4263 Y0.2373  
G01 X-2.4271 Y0.2371  
G01 X-2.4285 Y0.2364  
G01 X-2.4299 Y0.2358  
G01 X-2.4305 Y0.2354  
G01 X-2.5354 Y0.1835  
G01 X-2.5793 Y0.1835  
G01 X-2.5858 Y0.1822  
G01 X-2.5919 Y0.1797  
G01 X-2.5974 Y0.1760  
G01 X-2.6020 Y0.1714  
G01 X-2.6057 Y0.1659  
G01 X-2.6082 Y0.1598  
G01 X-2.6095 Y0.1533  
G01 X-2.6095 Y0.1467  
G01 X-2.6082 Y0.1402  
G01 X-2.6057 Y0.1341  
G01 X-2.6020 Y0.1286  
G01 X-2.5974 Y0.1240  
G01 X-2.5919 Y0.1203  
G01 X-2.5858 Y0.1178  
G01 X-2.5793 Y0.1165  
G01 X-2.5207 Y0.1165  
G01 X-2.5142 Y0.1178  
G01 X-2.5081 Y0.1203  
G01 X-2.5026 Y0.1240  
G01 X-2.4980 Y0.1286  
G01 X-2.4943 Y0.1341  
G01 X-2.4918 Y0.1402  
G01 X-2.4905 Y0.1467  
G01 X-2.4905 Y0.1533  
G01 X-2.4133 Y0.1915  
G01 X-2.2105 Y0.1915  
G01 X-2.2087 Y0.1914  
G01 X-2.2082 Y0.1915  
G01 X-2.2077 Y0.1915  
G01 X-2.2059 Y0.1919  
G01 X-2.2041 Y0.1921  
G01 X-2.2037 Y0.1923  
G01 X-2.2031 Y0.1924  
G01 X-2.2015 Y0.1931  
G01 X-2.1998 Y0.1937  
G01 X-2.1993 Y0.1940  
G01 X-2.1989 Y0.1942  
G01 X-2.1974 Y0.1952  
G01 X-2.1958 Y0.1961  
G01 X-2.1954 Y0.1965  
G01 X-2.1950 Y0.1967  
G01 X-2.1937 Y0.1980  
G01 X-2.1518 Y0.2365  
G01 X-2.1361 Y0.2365  
G01 X-2.1165 Y0.2561  
G01 X-2.1165 Y0.2839  
G01 X-2.1361 Y0.3035  
G00 Z0.0500  
G00 X-2.2765 Y0.3561  
G01 Z-0.0035 F10    
G01 X-2.2765 Y0.3839  F20    
G01 X-2.2946 Y0.4019  
G01 X-2.3271 Y0.5180  
G01 X-2.3274 Y0.5194  
G01 X-2.3278 Y0.5202  
G01 X-2.3280 Y0.5211  
G01 X-2.3286 Y0.5223  
G01 X-2.3292 Y0.5236  
G01 X-2.3297 Y0.5244  
G01 X-2.3301 Y0.5252  
G01 X-2.3310 Y0.5263  
G01 X-2.3317 Y0.5275  
G01 X-2.3324 Y0.5281  
G01 X-2.3330 Y0.5288  
G01 X-2.3340 Y0.5298  
G01 X-2.3654 Y0.5611  
G01 X-2.3715 Y0.5723  
G01 X-2.3715 Y0.8265  
G01 X-2.3555 Y0.8265  
G01 X-2.2835 Y0.7905  
G01 X-2.2835 Y0.7861  
G01 X-2.2639 Y0.7665  
G01 X-2.2361 Y0.7665  
G01 X-2.2165 Y0.7861  
G01 X-2.2165 Y0.8139  
G01 X-2.2361 Y0.8335  
G01 X-2.2639 Y0.8335  
G01 X-2.2641 Y0.8333  
G01 X-2.3382 Y0.8704  
G01 X-2.3389 Y0.8708  
G01 X-2.3402 Y0.8714  
G01 X-2.3416 Y0.8721  
G01 X-2.3424 Y0.8723  
G01 X-2.3431 Y0.8726  
G01 X-2.3446 Y0.8729  
G01 X-2.3460 Y0.8733  
G01 X-2.3469 Y0.8733  
G01 X-2.3477 Y0.8735  
G01 X-2.3492 Y0.8735  
G01 X-2.3506 Y0.8736  
G01 X-2.3515 Y0.8735  
G01 X-2.3961 Y0.8735  
G01 X-2.4061 Y0.8835  
G01 X-2.4339 Y0.8835  
G01 X-2.4535 Y0.8639  
G01 X-2.4535 Y0.8361  
G01 X-2.4339 Y0.8165  
G01 X-2.4185 Y0.8165  
G01 X-2.4185 Y0.6259  
G01 X-2.4261 Y0.6335  
G01 X-2.4539 Y0.6335  
G01 X-2.4735 Y0.6139  
G01 X-2.4735 Y0.5861  
G01 X-2.4539 Y0.5665  
G01 X-2.4372 Y0.5665  
G01 X-2.4026 Y0.5319  
G01 X-2.4017 Y0.5310  
G01 X-2.4009 Y0.5300  
G01 X-2.4001 Y0.5294  
G01 X-2.3710 Y0.5002  
G01 X-2.3394 Y0.3879  
G01 X-2.3435 Y0.3839  
G01 X-2.3435 Y0.3561  
G01 X-2.3239 Y0.3365  
G01 X-2.2961 Y0.3365  
G01 X-2.2765 Y0.3561  
G00 Z0.0500  
G00 X-2.6861 Y0.3335  
G01 Z-0.0035 F10    
G01 X-2.7139 Y0.3335  F20    
G01 X-2.7335 Y0.3139  
G01 X-2.7335 Y0.2997  
G01 X-2.8497 Y0.1835  
G01 X-2.8793 Y0.1835  
G01 X-2.8858 Y0.1822  
G01 X-2.8919 Y0.1797  
G01 X-2.8974 Y0.1760  
G01 X-2.8978 Y0.1756  
G01 X-2.9618 Y0.1784  
G01 X-3.0168 Y0.1913  
G01 X-3.0168 Y0.1949  
G01 X-3.0362 Y0.2144  
G01 X-3.0638 Y0.2144  
G01 X-3.0832 Y0.1949  
G01 X-3.0832 Y0.1673  
G01 X-3.0638 Y0.1479  
G01 X-3.0372 Y0.1479  
G01 X-2.9705 Y0.1321  
G01 X-2.9683 Y0.1316  
G01 X-2.9682 Y0.1316  
G01 X-2.9681 Y0.1316  
G01 X-2.9659 Y0.1315  
G01 X-2.9021 Y0.1287  
G01 X-2.8974 Y0.1240  
G01 X-2.8919 Y0.1203  
G01 X-2.8858 Y0.1178  
G01 X-2.8793 Y0.1165  
G01 X-2.8207 Y0.1165  
G01 X-2.8142 Y0.1178  
G01 X-2.8081 Y0.1203  
G01 X-2.8026 Y0.1240  
G01 X-2.7980 Y0.1286  
G01 X-2.7943 Y0.1341  
G01 X-2.7918 Y0.1402  
G01 X-2.7905 Y0.1467  
G01 X-2.7905 Y0.1533  
G01 X-2.7918 Y0.1598  
G01 X-2.7943 Y0.1659  
G01 X-2.7970 Y0.1698  
G01 X-2.7003 Y0.2665  
G01 X-2.6861 Y0.2665  
G01 X-2.6665 Y0.2861  
G01 X-2.6665 Y0.3139  
G01 X-2.6861 Y0.3335  
G00 Z0.0500  
G00 X-2.8640 Y0.3526  
G01 Z-0.0035 F10    
G01 X-2.8603 Y0.3581  F20    
G01 X-2.8578 Y0.3642  
G01 X-2.8565 Y0.3707  
G01 X-2.8565 Y0.4293  
G01 X-2.8578 Y0.4358  
G01 X-2.8603 Y0.4419  
G01 X-2.8640 Y0.4474  
G01 X-2.8686 Y0.4520  
G01 X-2.8741 Y0.4557  
G01 X-2.8802 Y0.4582  
G01 X-2.8867 Y0.4595  
G01 X-2.8933 Y0.4595  
G01 X-2.8998 Y0.4582  
G01 X-2.9059 Y0.4557  
G01 X-2.9114 Y0.4520  
G01 X-2.9160 Y0.4474  
G01 X-2.9197 Y0.4419  
G01 X-2.9222 Y0.4358  
G01 X-2.9235 Y0.4293  
G01 X-2.9235 Y0.4235  
G01 X-3.0265 Y0.4235  
G01 X-3.0265 Y0.4261  
G01 X-3.0165 Y0.4361  
G01 X-3.0165 Y0.4639  
G01 X-3.0361 Y0.4835  
G01 X-3.0503 Y0.4835  
G01 X-3.2165 Y0.6497  
G01 X-3.2165 Y0.6639  
G01 X-3.2337 Y0.6811  
G01 X-3.2418 Y0.8309  
G01 X-3.2365 Y0.8361  
G01 X-3.2365 Y0.8493  
G01 X-3.2363 Y0.8498  
G01 X-3.2358 Y0.8507  
G01 X-3.2354 Y0.8519  
G01 X-3.2349 Y0.8531  
G01 X-3.2347 Y0.8541  
G01 X-3.2344 Y0.8551  
G01 X-3.2343 Y0.8564  
G01 X-3.2340 Y0.8577  
G01 X-3.2340 Y0.8582  
G01 X-3.1467 Y1.0138  
G01 X-2.9942 Y1.1663  
G01 X-2.9917 Y1.1701  
G01 X-2.9899 Y1.1744  
G01 X-2.9890 Y1.1789  
G01 X-2.9890 Y1.4153  
G01 X-2.9817 Y1.4225  
G01 X-2.9792 Y1.4264  
G01 X-2.9774 Y1.4306  
G01 X-2.9765 Y1.4352  
G01 X-2.9765 Y1.6261  
G01 X-2.9665 Y1.6361  
G01 X-2.9665 Y1.6639  
G01 X-2.9861 Y1.6835  
G01 X-3.0139 Y1.6835  
G01 X-3.0335 Y1.6639  
G01 X-3.0335 Y1.6361  
G01 X-3.0235 Y1.6261  
G01 X-3.0235 Y1.4472  
G01 X-3.0275 Y1.4433  
G01 X-3.0308 Y1.4400  
G01 X-3.0333 Y1.4361  
G01 X-3.0351 Y1.4319  
G01 X-3.0360 Y1.4273  
G01 X-3.0360 Y1.1910  
G01 X-3.1812 Y1.0458  
G01 X-3.1819 Y1.0452  
G01 X-3.1829 Y1.0441  
G01 X-3.1839 Y1.0431  
G01 X-3.1844 Y1.0424  
G01 X-3.1849 Y1.0417  
G01 X-3.1857 Y1.0404  
G01 X-3.1865 Y1.0393  
G01 X-3.1868 Y1.0385  
G01 X-3.2747 Y0.8835  
G01 X-3.2839 Y0.8835  
G01 X-3.3035 Y0.8639  
G01 X-3.3035 Y0.8361  
G01 X-3.2883 Y0.8209  
G01 X-3.2800 Y0.6673  
G01 X-3.2835 Y0.6639  
G01 X-3.2835 Y0.6361  
G01 X-3.2639 Y0.6165  
G01 X-3.2497 Y0.6165  
G01 X-3.0835 Y0.4503  
G01 X-3.0835 Y0.4361  
G01 X-3.0735 Y0.4261  
G01 X-3.0735 Y0.3424  
G01 X-3.0832 Y0.3327  
G01 X-3.0832 Y0.3051  
G01 X-3.0638 Y0.2856  
G01 X-3.0362 Y0.2856  
G01 X-3.0168 Y0.3051  
G01 X-3.0168 Y0.3327  
G01 X-3.0265 Y0.3424  
G01 X-3.0265 Y0.3765  
G01 X-2.9235 Y0.3765  
G01 X-2.9235 Y0.3707  
G01 X-2.9222 Y0.3642  
G01 X-2.9197 Y0.3581  
G01 X-2.9160 Y0.3526  
G01 X-2.9114 Y0.3480  
G01 X-2.9059 Y0.3443  
G01 X-2.8998 Y0.3418  
G01 X-2.8933 Y0.3405  
G01 X-2.8867 Y0.3405  
G01 X-2.8802 Y0.3418  
G01 X-2.8741 Y0.3443  
G01 X-2.8686 Y0.3480  
G01 X-2.8640 Y0.3526  
G00 Z0.0500  
G00 X-2.8710 Y0.6324  
G01 Z-0.0035 F10    
G01 X-2.7710 Y0.6234  F20    
G01 X-2.7186 Y0.5797  
G01 X-2.7175 Y0.5786  
G01 X-2.7165 Y0.5779  
G01 X-2.7155 Y0.5771  
G01 X-2.7142 Y0.5764  
G01 X-2.7130 Y0.5756  
G01 X-2.7119 Y0.5752  
G01 X-2.7108 Y0.5746  
G01 X-2.7094 Y0.5741  
G01 X-2.7080 Y0.5736  
G01 X-2.7068 Y0.5733  
G01 X-2.7056 Y0.5729  
G01 X-2.7041 Y0.5728  
G01 X-2.7027 Y0.5725  
G01 X-2.7015 Y0.5725  
G01 X-2.7002 Y0.5724  
G01 X-2.6988 Y0.5725  
G01 X-2.5599 Y0.5725  
G01 X-2.5539 Y0.5665  
G01 X-2.5261 Y0.5665  
G01 X-2.5065 Y0.5861  
G01 X-2.5065 Y0.6139  
G01 X-2.5261 Y0.6335  
G01 X-2.5539 Y0.6335  
G01 X-2.5599 Y0.6275  
G01 X-2.6900 Y0.6275  
G01 X-2.7325 Y0.6629  
G01 X-2.7325 Y0.8626  
G01 X-2.6742 Y0.9625  
G01 X-2.5314 Y0.9625  
G01 X-2.5175 Y0.9486  
G01 X-2.5130 Y0.9456  
G01 X-2.5080 Y0.9436  
G01 X-2.5027 Y0.9425  
G01 X-2.3803 Y0.9425  
G01 X-2.3801 Y0.9420  
G01 X-2.3780 Y0.9399  
G01 X-2.3752 Y0.9388  
G01 X-2.3248 Y0.9388  
G01 X-2.3220 Y0.9399  
G01 X-2.3199 Y0.9420  
G01 X-2.3188 Y0.9448  
G01 X-2.3188 Y0.9952  
G01 X-2.3199 Y0.9980  
G01 X-2.3220 Y1.0001  
G01 X-2.3248 Y1.0012  
G01 X-2.3752 Y1.0012  
G01 X-2.3780 Y1.0001  
G01 X-2.3801 Y0.9980  
G01 X-2.3803 Y0.9975  
G01 X-2.4886 Y0.9975  
G01 X-2.4986 Y1.0075  
G01 X-2.5025 Y1.0114  
G01 X-2.5070 Y1.0144  
G01 X-2.5120 Y1.0164  
G01 X-2.5173 Y1.0175  
G01 X-2.6881 Y1.0175  
G01 X-2.6890 Y1.0176  
G01 X-2.6908 Y1.0175  
G01 X-2.6927 Y1.0175  
G01 X-2.6935 Y1.0173  
G01 X-2.6944 Y1.0173  
G01 X-2.6962 Y1.0168  
G01 X-2.6980 Y1.0164  
G01 X-2.6988 Y1.0161  
G01 X-2.6996 Y1.0159  
G01 X-2.7013 Y1.0151  
G01 X-2.7030 Y1.0144  
G01 X-2.7037 Y1.0139  
G01 X-2.7045 Y1.0135  
G01 X-2.7060 Y1.0124  
G01 X-2.7075 Y1.0114  
G01 X-2.7081 Y1.0108  
G01 X-2.7088 Y1.0103  
G01 X-2.7100 Y1.0089  
G01 X-2.7114 Y1.0075  
G01 X-2.7118 Y1.0068  
G01 X-2.7124 Y1.0062  
G01 X-2.7133 Y1.0046  
G01 X-2.7144 Y1.0030  
G01 X-2.7147 Y1.0022  
G01 X-2.7833 Y0.8846  
G01 X-2.7844 Y0.8830  
G01 X-2.7847 Y0.8822  
G01 X-2.7851 Y0.8815  
G01 X-2.7857 Y0.8797  
G01 X-2.7864 Y0.8780  
G01 X-2.7866 Y0.8772  
G01 X-2.7869 Y0.8764  
G01 X-2.7871 Y0.8745  
G01 X-2.7875 Y0.8727  
G01 X-2.7875 Y0.8719  
G01 X-2.7876 Y0.8710  
G01 X-2.7875 Y0.8692  
G01 X-2.7875 Y0.6801  
G01 X-2.8661 Y0.6871  
G01 X-2.9086 Y0.6996  
G01 X-2.9140 Y0.7001  
G01 X-2.9194 Y0.6996  
G01 X-2.9221 Y0.6987  
G01 X-2.9342 Y0.7016  
G01 X-2.9390 Y0.7318  
G01 X-2.9390 Y1.0046  
G01 X-2.8498 Y1.1220  
G01 X-2.8492 Y1.1225  
G01 X-2.8484 Y1.1238  
G01 X-2.8474 Y1.1251  
G01 X-2.8471 Y1.1258  
G01 X-2.8467 Y1.1264  
G01 X-2.8461 Y1.1278  
G01 X-2.8454 Y1.1293  
G01 X-2.8452 Y1.1300  
G01 X-2.8449 Y1.1306  
G01 X-2.8446 Y1.1322  
G01 X-2.8442 Y1.1338  
G01 X-2.8441 Y1.1345  
G01 X-2.8440 Y1.1352  
G01 X-2.8440 Y1.1368  
G01 X-2.8439 Y1.1384  
G01 X-2.8440 Y1.1391  
G01 X-2.8440 Y1.5830  
G01 X-2.8440 Y1.5833  
G01 X-2.8440 Y1.5850  
G01 X-2.8439 Y1.5867  
G01 X-2.8440 Y1.5870  
G01 X-2.8440 Y1.5873  
G01 X-2.8441 Y1.5876  
G01 X-2.8441 Y1.5879  
G01 X-2.8444 Y1.5896  
G01 X-2.8447 Y1.5913  
G01 X-2.8448 Y1.5916  
G01 X-2.8449 Y1.5919  
G01 X-2.8450 Y1.5921  
G01 X-2.8570 Y1.6456  
G01 X-2.8565 Y1.6461  
G01 X-2.8565 Y1.6739  
G01 X-2.8761 Y1.6935  
G01 X-2.8961 Y1.6935  
G01 X-2.9558 Y1.7321  
G01 X-2.9576 Y1.7333  
G01 X-2.9578 Y1.7334  
G01 X-2.9579 Y1.7335  
G01 X-2.9599 Y1.7343  
G01 X-2.9619 Y1.7351  
G01 X-2.9621 Y1.7351  
G01 X-2.9622 Y1.7352  
G01 X-2.9643 Y1.7356  
G01 X-2.9664 Y1.7360  
G01 X-2.9666 Y1.7360  
G01 X-2.9668 Y1.7360  
G01 X-2.9689 Y1.7360  
G01 X-3.2303 Y1.7360  
G01 X-3.4063 Y1.9120  
G01 X-3.4101 Y1.9146  
G01 X-3.4144 Y1.9163  
G01 X-3.4189 Y1.9172  
G01 X-3.4555 Y1.9172  
G01 X-3.4555 Y1.9184  
G01 X-3.4816 Y1.9445  
G01 X-3.5184 Y1.9445  
G01 X-3.5394 Y1.9235  
G01 X-3.5606 Y1.9235  
G01 X-3.5816 Y1.9445  
G01 X-3.6184 Y1.9445  
G01 X-3.6445 Y1.9184  
G01 X-3.6445 Y1.8816  
G01 X-3.6184 Y1.8555  
G01 X-3.5816 Y1.8555  
G01 X-3.5606 Y1.8765  
G01 X-3.5394 Y1.8765  
G01 X-3.5184 Y1.8555  
G01 X-3.4816 Y1.8555  
G01 X-3.4668 Y1.8702  
G01 X-3.4310 Y1.8702  
G01 X-3.2583 Y1.6975  
G01 X-3.2550 Y1.6942  
G01 X-3.2511 Y1.6917  
G01 X-3.2469 Y1.6899  
G01 X-3.2423 Y1.6890  
G01 X-2.9757 Y1.6890  
G01 X-2.9235 Y1.6552  
G01 X-2.9235 Y1.6461  
G01 X-2.9116 Y1.6342  
G01 X-2.8910 Y1.5806  
G01 X-2.8910 Y1.1454  
G01 X-2.9802 Y1.0280  
G01 X-2.9808 Y1.0275  
G01 X-2.9816 Y1.0262  
G01 X-2.9826 Y1.0249  
G01 X-2.9829 Y1.0242  
G01 X-2.9833 Y1.0236  
G01 X-2.9839 Y1.0222  
G01 X-2.9846 Y1.0207  
G01 X-2.9848 Y1.0200  
G01 X-2.9851 Y1.0194  
G01 X-2.9854 Y1.0178  
G01 X-2.9858 Y1.0162  
G01 X-2.9859 Y1.0155  
G01 X-2.9860 Y1.0148  
G01 X-2.9860 Y1.0132  
G01 X-2.9861 Y1.0116  
G01 X-2.9860 Y1.0109  
G01 X-2.9860 Y0.7305  
G01 X-2.9861 Y0.7286  
G01 X-2.9860 Y0.7282  
G01 X-2.9860 Y0.7277  
G01 X-2.9856 Y0.7259  
G01 X-2.9782 Y0.6788  
G01 X-2.9779 Y0.6766  
G01 X-2.9770 Y0.6744  
G01 X-2.9763 Y0.6722  
G01 X-2.9751 Y0.6703  
G01 X-2.9739 Y0.6683  
G01 X-2.9723 Y0.6666  
G01 X-2.9707 Y0.6649  
G01 X-2.9688 Y0.6635  
G01 X-2.9670 Y0.6622  
G01 X-2.9649 Y0.6612  
G01 X-2.9628 Y0.6602  
G01 X-2.9605 Y0.6597  
G01 X-2.9334 Y0.6531  
G01 X-2.9331 Y0.6528  
G01 X-2.9289 Y0.6494  
G01 X-2.9241 Y0.6469  
G01 X-2.8816 Y0.6344  
G01 X-2.8780 Y0.6333  
G01 X-2.8764 Y0.6329  
G01 X-2.8719 Y0.6324  
G01 X-2.8710 Y0.6324  
G00 Z0.0500  
G00 X-2.8741 Y0.7443  
G01 Z-0.0035 F10    
G01 X-2.8686 Y0.7480  F20    
G01 X-2.8640 Y0.7526  
G01 X-2.8603 Y0.7581  
G01 X-2.8578 Y0.7642  
G01 X-2.8565 Y0.7707  
G01 X-2.8565 Y0.8293  
G01 X-2.8578 Y0.8358  
G01 X-2.8603 Y0.8419  
G01 X-2.8640 Y0.8474  
G01 X-2.8686 Y0.8520  
G01 X-2.8702 Y0.8531  
G01 X-2.8702 Y0.9465  
G01 X-2.8661 Y0.9465  
G01 X-2.8465 Y0.9661  
G01 X-2.8465 Y0.9939  
G01 X-2.8661 Y1.0135  
G01 X-2.8939 Y1.0135  
G01 X-2.9135 Y0.9939  
G01 X-2.9135 Y0.9815  
G01 X-2.9146 Y0.9799  
G01 X-2.9163 Y0.9756  
G01 X-2.9172 Y0.9711  
G01 X-2.9172 Y0.8455  
G01 X-2.9197 Y0.8419  
G01 X-2.9222 Y0.8358  
G01 X-2.9235 Y0.8293  
G01 X-2.9235 Y0.7707  
G01 X-2.9222 Y0.7642  
G01 X-2.9197 Y0.7581  
G01 X-2.9160 Y0.7526  
G01 X-2.9114 Y0.7480  
G01 X-2.9059 Y0.7443  
G01 X-2.8998 Y0.7418  
G01 X-2.8933 Y0.7405  
G01 X-2.8867 Y0.7405  
G01 X-2.8802 Y0.7418  
G01 X-2.8741 Y0.7443  
G00 Z0.0500  
G00 X-2.6935 Y0.7361  
G01 Z-0.0035 F10    
G01 X-2.6739 Y0.7165  F20    
G01 X-2.6461 Y0.7165  
G01 X-2.6361 Y0.7265  
G01 X-2.5172 Y0.7265  
G01 X-2.5172 Y0.6951  
G01 X-2.5235 Y0.6889  
G01 X-2.5235 Y0.6611  
G01 X-2.5039 Y0.6415  
G01 X-2.4761 Y0.6415  
G01 X-2.4565 Y0.6611  
G01 X-2.4565 Y0.6889  
G01 X-2.4703 Y0.7026  
G01 X-2.4703 Y0.7482  
G01 X-2.4702 Y0.7487  
G01 X-2.4703 Y0.7505  
G01 X-2.4703 Y0.7523  
G01 X-2.4703 Y0.7528  
G01 X-2.4704 Y0.7533  
G01 X-2.4708 Y0.7551  
G01 X-2.4712 Y0.7569  
G01 X-2.4713 Y0.7573  
G01 X-2.5005 Y0.8774  
G01 X-2.5005 Y0.8778  
G01 X-2.5010 Y0.8797  
G01 X-2.5015 Y0.8815  
G01 X-2.5016 Y0.8819  
G01 X-2.5017 Y0.8823  
G01 X-2.5026 Y0.8840  
G01 X-2.5034 Y0.8857  
G01 X-2.5036 Y0.8861  
G01 X-2.5038 Y0.8864  
G01 X-2.5050 Y0.8879  
G01 X-2.5061 Y0.8895  
G01 X-2.5064 Y0.8897  
G01 X-2.5265 Y0.9154  
G01 X-2.5265 Y0.9339  
G01 X-2.5461 Y0.9535  
G01 X-2.5739 Y0.9535  
G01 X-2.5935 Y0.9339  
G01 X-2.5935 Y0.9061  
G01 X-2.5739 Y0.8865  
G01 X-2.5636 Y0.8865  
G01 X-2.5454 Y0.8633  
G01 X-2.5236 Y0.7735  
G01 X-2.6361 Y0.7735  
G01 X-2.6461 Y0.7835  
G01 X-2.6739 Y0.7835  
G01 X-2.6935 Y0.7639  
G01 X-2.6935 Y0.7361  
G00 Z0.0500  
G00 X-2.5739 Y1.0865  
G01 Z-0.0035 F10    
G01 X-2.5461 Y1.0865  F20    
G01 X-2.5284 Y1.1043  
G01 X-2.4469 Y1.1265  
G01 X-2.4439 Y1.1265  
G01 X-2.4339 Y1.1165  
G01 X-2.4061 Y1.1165  
G01 X-2.3865 Y1.1361  
G01 X-2.3865 Y1.1639  
G01 X-2.4061 Y1.1835  
G01 X-2.4339 Y1.1835  
G01 X-2.4421 Y1.1753  
G01 X-2.5165 Y1.2497  
G01 X-2.5165 Y1.2639  
G01 X-2.5361 Y1.2835  
G01 X-2.5639 Y1.2835  
G01 X-2.5835 Y1.2639  
G01 X-2.5835 Y1.2361  
G01 X-2.5639 Y1.2165  
G01 X-2.5497 Y1.2165  
G01 X-2.4953 Y1.1620  
G01 X-2.5419 Y1.1493  
G01 X-2.5461 Y1.1535  
G01 X-2.5739 Y1.1535  
G01 X-2.5935 Y1.1339  
G01 X-2.5935 Y1.1061  
G01 X-2.5739 Y1.0865  
G00 Z0.0500  
G00 X-2.6480 Y1.2286  
G01 Z-0.0035 F10    
G01 X-2.6443 Y1.2341  F20    
G01 X-2.6418 Y1.2402  
G01 X-2.6405 Y1.2467  
G01 X-2.6405 Y1.2533  
G01 X-2.6418 Y1.2598  
G01 X-2.6443 Y1.2659  
G01 X-2.6462 Y1.2686  
G01 X-2.6204 Y1.2990  
G01 X-2.4747 Y1.2990  
G01 X-2.4325 Y1.2568  
G01 X-2.4319 Y1.2560  
G01 X-2.4309 Y1.2552  
G01 X-2.4300 Y1.2542  
G01 X-2.4291 Y1.2537  
G01 X-2.4284 Y1.2530  
G01 X-2.4272 Y1.2524  
G01 X-2.4261 Y1.2517  
G01 X-2.4252 Y1.2513  
G01 X-2.4243 Y1.2508  
G01 X-2.4231 Y1.2504  
G01 X-2.4219 Y1.2499  
G01 X-2.4209 Y1.2497  
G01 X-2.4199 Y1.2494  
G01 X-2.4186 Y1.2493  
G01 X-2.4173 Y1.2490  
G01 X-2.4163 Y1.2490  
G01 X-2.3291 Y1.2393  
G01 X-2.3284 Y1.2391  
G01 X-2.3268 Y1.2391  
G01 X-2.3253 Y1.2389  
G01 X-2.3245 Y1.2390  
G01 X-2.2950 Y1.2376  
G01 X-2.2839 Y1.2265  
G01 X-2.2561 Y1.2265  
G01 X-2.2365 Y1.2461  
G01 X-2.2365 Y1.2739  
G01 X-2.2561 Y1.2935  
G01 X-2.2839 Y1.2935  
G01 X-2.2928 Y1.2846  
G01 X-2.3232 Y1.2859  
G01 X-2.4042 Y1.2949  
G01 X-2.4467 Y1.3375  
G01 X-2.4500 Y1.3408  
G01 X-2.4539 Y1.3433  
G01 X-2.4581 Y1.3451  
G01 X-2.4627 Y1.3460  
G01 X-2.6299 Y1.3460  
G01 X-2.6309 Y1.3461  
G01 X-2.6322 Y1.3460  
G01 X-2.6336 Y1.3460  
G01 X-2.6345 Y1.3458  
G01 X-2.6355 Y1.3457  
G01 X-2.6368 Y1.3454  
G01 X-2.6381 Y1.3451  
G01 X-2.6390 Y1.3447  
G01 X-2.6399 Y1.3445  
G01 X-2.6411 Y1.3438  
G01 X-2.6424 Y1.3433  
G01 X-2.6432 Y1.3428  
G01 X-2.6440 Y1.3424  
G01 X-2.6451 Y1.3415  
G01 X-2.6462 Y1.3408  
G01 X-2.6469 Y1.3401  
G01 X-2.6477 Y1.3395  
G01 X-2.6485 Y1.3384  
G01 X-2.6495 Y1.3375  
G01 X-2.6500 Y1.3367  
G01 X-2.6952 Y1.2835  
G01 X-2.7293 Y1.2835  
G01 X-2.7358 Y1.2822  
G01 X-2.7419 Y1.2797  
G01 X-2.7474 Y1.2760  
G01 X-2.7520 Y1.2714  
G01 X-2.7557 Y1.2659  
G01 X-2.7582 Y1.2598  
G01 X-2.7595 Y1.2533  
G01 X-2.7595 Y1.2467  
G01 X-2.7582 Y1.2402  
G01 X-2.7557 Y1.2341  
G01 X-2.7520 Y1.2286  
G01 X-2.7474 Y1.2240  
G01 X-2.7419 Y1.2203  
G01 X-2.7358 Y1.2178  
G01 X-2.7293 Y1.2165  
G01 X-2.6707 Y1.2165  
G01 X-2.6642 Y1.2178  
G01 X-2.6581 Y1.2203  
G01 X-2.6526 Y1.2240  
G01 X-2.6480 Y1.2286  
G00 Z0.0500  
G00 X-2.6242 Y1.4578  
G01 Z-0.0035 F10    
G01 X-2.5835 Y1.4398  F20    
G01 X-2.5835 Y1.4361  
G01 X-2.5639 Y1.4165  
G01 X-2.5361 Y1.4165  
G01 X-2.5261 Y1.4265  
G01 X-2.3939 Y1.4265  
G01 X-2.3839 Y1.4165  
G01 X-2.3561 Y1.4165  
G01 X-2.3365 Y1.4361  
G01 X-2.3365 Y1.4639  
G01 X-2.3561 Y1.4835  
G01 X-2.3839 Y1.4835  
G01 X-2.3939 Y1.4735  
G01 X-2.5261 Y1.4735  
G01 X-2.5361 Y1.4835  
G01 X-2.5639 Y1.4835  
G01 X-2.5645 Y1.4828  
G01 X-2.6062 Y1.5012  
G01 X-2.6077 Y1.5020  
G01 X-2.6083 Y1.5022  
G01 X-2.6089 Y1.5024  
G01 X-2.6105 Y1.5028  
G01 X-2.6405 Y1.5112  
G01 X-2.6405 Y1.5133  
G01 X-2.6418 Y1.5198  
G01 X-2.6443 Y1.5259  
G01 X-2.6480 Y1.5314  
G01 X-2.6526 Y1.5360  
G01 X-2.6581 Y1.5397  
G01 X-2.6642 Y1.5422  
G01 X-2.6707 Y1.5435  
G01 X-2.7293 Y1.5435  
G01 X-2.7358 Y1.5422  
G01 X-2.7419 Y1.5397  
G01 X-2.7474 Y1.5360  
G01 X-2.7520 Y1.5314  
G01 X-2.7557 Y1.5259  
G01 X-2.7582 Y1.5198  
G01 X-2.7595 Y1.5133  
G01 X-2.7595 Y1.5067  
G01 X-2.7582 Y1.5002  
G01 X-2.7557 Y1.4941  
G01 X-2.7520 Y1.4886  
G01 X-2.7474 Y1.4840  
G01 X-2.7419 Y1.4803  
G01 X-2.7358 Y1.4778  
G01 X-2.7293 Y1.4765  
G01 X-2.6907 Y1.4765  
G01 X-2.6242 Y1.4578  
G00 Z0.0500  
G00 X-2.6039 Y1.6265  
G01 Z-0.0035 F10    
G01 X-2.5761 Y1.6265  F20    
G01 X-2.5678 Y1.6348  
G01 X-2.4667 Y1.6272  
G01 X-2.3535 Y1.5140  
G01 X-2.3535 Y1.5111  
G01 X-2.3339 Y1.4915  
G01 X-2.3061 Y1.4915  
G01 X-2.2865 Y1.5111  
G01 X-2.2865 Y1.5196  
G01 X-2.2336 Y1.5725  
G01 X-2.1277 Y1.5725  
G01 X-2.1249 Y1.5697  
G01 X-2.1185 Y1.5654  
G01 X-2.1114 Y1.5625  
G01 X-2.1038 Y1.5610  
G01 X-2.0962 Y1.5610  
G01 X-2.0886 Y1.5625  
G01 X-2.0815 Y1.5654  
G01 X-2.0751 Y1.5697  
G01 X-2.0697 Y1.5751  
G01 X-2.0654 Y1.5815  
G01 X-2.0625 Y1.5886  
G01 X-2.0610 Y1.5962  
G01 X-2.0610 Y1.6038  
G01 X-2.0625 Y1.6114  
G01 X-2.0654 Y1.6185  
G01 X-2.0697 Y1.6249  
G01 X-2.0751 Y1.6303  
G01 X-2.0815 Y1.6346  
G01 X-2.0886 Y1.6375  
G01 X-2.0962 Y1.6390  
G01 X-2.1038 Y1.6390  
G01 X-2.1114 Y1.6375  
G01 X-2.1185 Y1.6346  
G01 X-2.1249 Y1.6303  
G01 X-2.1277 Y1.6275  
G01 X-2.2477 Y1.6275  
G01 X-2.2530 Y1.6264  
G01 X-2.2580 Y1.6244  
G01 X-2.2625 Y1.6214  
G01 X-2.3254 Y1.5585  
G01 X-2.3315 Y1.5585  
G01 X-2.4390 Y1.6660  
G01 X-2.4400 Y1.6671  
G01 X-2.4406 Y1.6676  
G01 X-2.4413 Y1.6683  
G01 X-2.4425 Y1.6691  
G01 X-2.4436 Y1.6699  
G01 X-2.4444 Y1.6703  
G01 X-2.4451 Y1.6708  
G01 X-2.4464 Y1.6714  
G01 X-2.4477 Y1.6720  
G01 X-2.4486 Y1.6723  
G01 X-2.4494 Y1.6726  
G01 X-2.4508 Y1.6729  
G01 X-2.4522 Y1.6733  
G01 X-2.4531 Y1.6733  
G01 X-2.4539 Y1.6735  
G01 X-2.4554 Y1.6735  
G01 X-2.4592 Y1.6738  
G01 X-2.4594 Y1.6740  
G01 X-2.4632 Y1.6767  
G01 X-2.4674 Y1.6786  
G01 X-2.4719 Y1.6797  
G01 X-2.5653 Y1.6827  
G01 X-2.5761 Y1.6935  
G01 X-2.6039 Y1.6935  
G01 X-2.6235 Y1.6739  
G01 X-2.6235 Y1.6461  
G01 X-2.6039 Y1.6265  
G00 Z0.0500  
G00 X-2.6247 Y1.9925  
G01 Z-0.0035 F10    
G01 X-2.3675 Y1.9925  F20    
G01 X-2.3675 Y1.9299  
G01 X-2.3835 Y1.9139  
G01 X-2.3835 Y1.8861  
G01 X-2.3639 Y1.8665  
G01 X-2.3361 Y1.8665  
G01 X-2.3165 Y1.8861  
G01 X-2.3165 Y1.8957  
G01 X-2.3156 Y1.8970  
G01 X-2.3136 Y1.9020  
G01 X-2.3125 Y1.9073  
G01 X-2.3125 Y2.0001  
G01 X-2.3065 Y2.0061  
G01 X-2.3065 Y2.0339  
G01 X-2.3261 Y2.0535  
G01 X-2.3539 Y2.0535  
G01 X-2.3599 Y2.0475  
G01 X-2.6135 Y2.0475  
G01 X-2.6453 Y2.0852  
G01 X-2.6451 Y2.0869  
G01 X-2.6457 Y2.0915  
G01 X-2.6465 Y2.0938  
G01 X-2.6465 Y2.1089  
G01 X-2.6661 Y2.1285  
G01 X-2.6939 Y2.1285  
G01 X-2.7135 Y2.1089  
G01 X-2.7135 Y2.0865  
G01 X-2.7250 Y2.0770  
G01 X-2.8268 Y2.0742  
G01 X-2.8361 Y2.0835  
G01 X-2.8565 Y2.0835  
G01 X-2.9413 Y2.1683  
G01 X-2.9451 Y2.1708  
G01 X-2.9494 Y2.1726  
G01 X-2.9539 Y2.1735  
G01 X-3.0261 Y2.1735  
G01 X-3.0361 Y2.1835  
G01 X-3.0639 Y2.1835  
G01 X-3.0835 Y2.1639  
G01 X-3.0835 Y2.1361  
G01 X-3.0639 Y2.1165  
G01 X-3.0361 Y2.1165  
G01 X-3.0261 Y2.1265  
G01 X-2.9660 Y2.1265  
G01 X-2.8835 Y2.0440  
G01 X-2.8835 Y2.0361  
G01 X-2.8639 Y2.0165  
G01 X-2.8361 Y2.0165  
G01 X-2.8254 Y2.0272  
G01 X-2.7170 Y2.0302  
G01 X-2.7162 Y2.0301  
G01 X-2.7147 Y2.0303  
G01 X-2.7133 Y2.0303  
G01 X-2.7124 Y2.0305  
G01 X-2.7115 Y2.0306  
G01 X-2.7102 Y2.0310  
G01 X-2.7088 Y2.0314  
G01 X-2.7080 Y2.0317  
G01 X-2.7071 Y2.0320  
G01 X-2.7059 Y2.0327  
G01 X-2.7045 Y2.0332  
G01 X-2.7038 Y2.0338  
G01 X-2.7031 Y2.0342  
G01 X-2.7019 Y2.0351  
G01 X-2.7008 Y2.0359  
G01 X-2.7002 Y2.0366  
G01 X-2.6860 Y2.0482  
G01 X-2.6483 Y2.0034  
G01 X-2.6476 Y2.0025  
G01 X-2.6465 Y2.0014  
G01 X-2.6455 Y2.0002  
G01 X-2.6446 Y1.9995  
G01 X-2.6438 Y1.9986  
G01 X-2.6425 Y1.9978  
G01 X-2.6413 Y1.9968  
G01 X-2.6403 Y1.9963  
G01 X-2.6393 Y1.9956  
G01 X-2.6379 Y1.9950  
G01 X-2.6365 Y1.9943  
G01 X-2.6354 Y1.9940  
G01 X-2.6343 Y1.9936  
G01 X-2.6328 Y1.9933  
G01 X-2.6313 Y1.9928  
G01 X-2.6301 Y1.9927  
G01 X-2.6290 Y1.9925  
G01 X-2.6274 Y1.9925  
G01 X-2.6259 Y1.9924  
G01 X-2.6247 Y1.9925  
G00 Z0.0500  
G00 X-2.6161 Y2.1365  
G01 Z-0.0035 F10    
G01 X-2.5965 Y2.1561  F20    
G01 X-2.5965 Y2.1578  
G01 X-2.5528 Y2.2015  
G01 X-2.1416 Y2.2015  
G01 X-1.7842 Y1.9322  
G01 X-1.7837 Y1.9317  
G01 X-1.7824 Y1.9308  
G01 X-1.7810 Y1.9298  
G01 X-1.7804 Y1.9295  
G01 X-1.7799 Y1.9292  
G01 X-1.7784 Y1.9285  
G01 X-1.7769 Y1.9278  
G01 X-1.7762 Y1.9277  
G01 X-1.7756 Y1.9274  
G01 X-1.7740 Y1.9271  
G01 X-1.7724 Y1.9267  
G01 X-1.7717 Y1.9266  
G01 X-1.7711 Y1.9265  
G01 X-1.7694 Y1.9265  
G01 X-1.7678 Y1.9264  
G01 X-1.7671 Y1.9265  
G01 X-1.3525 Y1.9265  
G01 X-0.9309 Y1.4852  
G01 X-0.9308 Y1.4850  
G01 X-0.9293 Y1.4836  
G01 X-0.9279 Y1.4821  
G01 X-0.9277 Y1.4819  
G01 X-0.9275 Y1.4817  
G01 X-0.9258 Y1.4806  
G01 X-0.9241 Y1.4794  
G01 X-0.9239 Y1.4793  
G01 X-0.9236 Y1.4792  
G01 X-0.9217 Y1.4784  
G01 X-0.9199 Y1.4776  
G01 X-0.9196 Y1.4775  
G01 X-0.9194 Y1.4774  
G01 X-0.9173 Y1.4770  
G01 X-0.9153 Y1.4766  
G01 X-0.9151 Y1.4766  
G01 X-0.9148 Y1.4765  
G01 X-0.9128 Y1.4765  
G01 X-0.9107 Y1.4765  
G01 X-0.9105 Y1.4765  
G01 X-0.6817 Y1.4765  
G01 X-0.6662 Y1.4610  
G01 X-0.6338 Y1.4610  
G01 X-0.6301 Y1.4647  
G01 X-0.2339 Y1.2881  
G01 X-0.2336 Y1.2879  
G01 X-0.2318 Y1.2872  
G01 X-0.2300 Y1.2863  
G01 X-0.2296 Y1.2863  
G01 X-0.2294 Y1.2862  
G01 X-0.2274 Y1.2858  
G01 X-0.2254 Y1.2853  
G01 X-0.2251 Y1.2853  
G01 X-0.2248 Y1.2853  
G01 X-0.2228 Y1.2853  
G01 X-0.2208 Y1.2852  
G01 X-0.2205 Y1.2853  
G01 X-0.1100 Y1.2853  
G01 X-0.1089 Y1.2851  
G01 X-0.1077 Y1.2853  
G01 X-0.1064 Y1.2853  
G01 X-0.1054 Y1.2855  
G01 X-0.1043 Y1.2856  
G01 X-0.1031 Y1.2859  
G01 X-0.1019 Y1.2862  
G01 X-0.1009 Y1.2866  
G01 X-0.0999 Y1.2869  
G01 X-0.0988 Y1.2874  
G01 X-0.0976 Y1.2879  
G01 X-0.0967 Y1.2885  
G01 X-0.0958 Y1.2890  
G01 X-0.0948 Y1.2898  
G01 X-0.0938 Y1.2905  
G01 X-0.0930 Y1.2913  
G01 X-0.0922 Y1.2919  
G01 X-0.0914 Y1.2929  
G01 X-0.0905 Y1.2938  
G01 X-0.0899 Y1.2947  
G01 X-0.0414 Y1.3529  
G01 X-0.0405 Y1.3538  
G01 X-0.0399 Y1.3547  
G01 X-0.0392 Y1.3555  
G01 X-0.0386 Y1.3566  
G01 X-0.0379 Y1.3576  
G01 X-0.0375 Y1.3586  
G01 X-0.0370 Y1.3595  
G01 X-0.0366 Y1.3607  
G01 X-0.0362 Y1.3619  
G01 X-0.0359 Y1.3629  
G01 X-0.0356 Y1.3640  
G01 X-0.0355 Y1.3652  
G01 X-0.0352 Y1.3664  
G01 X-0.0352 Y1.3675  
G01 X-0.0351 Y1.3686  
G01 X-0.0352 Y1.3698  
G01 X-0.0352 Y1.4301  
G01 X-0.0351 Y1.4312  
G01 X-0.0352 Y1.4324  
G01 X-0.0352 Y1.4336  
G01 X-0.0355 Y1.4347  
G01 X-0.0356 Y1.4359  
G01 X-0.0359 Y1.4370  
G01 X-0.0362 Y1.4381  
G01 X-0.0366 Y1.4392  
G01 X-0.0369 Y1.4403  
G01 X-0.0375 Y1.4413  
G01 X-0.0379 Y1.4424  
G01 X-0.0386 Y1.4433  
G01 X-0.0391 Y1.4444  
G01 X-0.0399 Y1.4453  
G01 X-0.0405 Y1.4462  
G01 X-0.0413 Y1.4470  
G01 X-0.1265 Y1.5509  
G01 X-0.1265 Y1.5521  
G01 X-0.1235 Y1.5537  
G01 X-0.1171 Y1.5583  
G01 X-0.1115 Y1.5640  
G01 X-0.1068 Y1.5704  
G01 X-0.1032 Y1.5775  
G01 X-0.1007 Y1.5850  
G01 X-0.0995 Y1.5929  
G01 X-0.0995 Y1.6008  
G01 X-0.1007 Y1.6087  
G01 X-0.1032 Y1.6162  
G01 X-0.1068 Y1.6233  
G01 X-0.1115 Y1.6297  
G01 X-0.1171 Y1.6354  
G01 X-0.1235 Y1.6400  
G01 X-0.1306 Y1.6437  
G01 X-0.1382 Y1.6461  
G01 X-0.1460 Y1.6474  
G01 X-0.1540 Y1.6474  
G01 X-0.1618 Y1.6461  
G01 X-0.1694 Y1.6437  
G01 X-0.1765 Y1.6400  
G01 X-0.1829 Y1.6354  
G01 X-0.1885 Y1.6297  
G01 X-0.1932 Y1.6233  
G01 X-0.1968 Y1.6162  
G01 X-0.1993 Y1.6087  
G01 X-0.2005 Y1.6008  
G01 X-0.2005 Y1.5929  
G01 X-0.1993 Y1.5850  
G01 X-0.1968 Y1.5775  
G01 X-0.1932 Y1.5704  
G01 X-0.1885 Y1.5640  
G01 X-0.1829 Y1.5583  
G01 X-0.1765 Y1.5537  
G01 X-0.1735 Y1.5521  
G01 X-0.1735 Y1.5437  
G01 X-0.1736 Y1.5425  
G01 X-0.1735 Y1.5413  
G01 X-0.1735 Y1.5402  
G01 X-0.1733 Y1.5391  
G01 X-0.1732 Y1.5379  
G01 X-0.1728 Y1.5368  
G01 X-0.1726 Y1.5356  
G01 X-0.1722 Y1.5346  
G01 X-0.1718 Y1.5335  
G01 X-0.1713 Y1.5324  
G01 X-0.1708 Y1.5314  
G01 X-0.1702 Y1.5304  
G01 X-0.1696 Y1.5294  
G01 X-0.1689 Y1.5285  
G01 X-0.1683 Y1.5275  
G01 X-0.1674 Y1.5267  
G01 X-0.0822 Y1.4228  
G01 X-0.0822 Y1.3773  
G01 X-0.1198 Y1.3322  
G01 X-0.2175 Y1.3322  
G01 X-0.6110 Y1.5077  
G01 X-0.6110 Y1.5162  
G01 X-0.6338 Y1.5390  
G01 X-0.6662 Y1.5390  
G01 X-0.6817 Y1.5235  
G01 X-0.9025 Y1.5235  
G01 X-1.3241 Y1.9648  
G01 X-1.3242 Y1.9650  
G01 X-1.3257 Y1.9664  
G01 X-1.3271 Y1.9679  
G01 X-1.3273 Y1.9681  
G01 X-1.3275 Y1.9683  
G01 X-1.3292 Y1.9694  
G01 X-1.3309 Y1.9706  
G01 X-1.3311 Y1.9707  
G01 X-1.3314 Y1.9708  
G01 X-1.3333 Y1.9716  
G01 X-1.3351 Y1.9724  
G01 X-1.3354 Y1.9725  
G01 X-1.3356 Y1.9726  
G01 X-1.3377 Y1.9730  
G01 X-1.3397 Y1.9734  
G01 X-1.3399 Y1.9734  
G01 X-1.3402 Y1.9735  
G01 X-1.3422 Y1.9735  
G01 X-1.3443 Y1.9735  
G01 X-1.3445 Y1.9735  
G01 X-1.7609 Y1.9735  
G01 X-2.1183 Y2.2428  
G01 X-2.1188 Y2.2433  
G01 X-2.1201 Y2.2442  
G01 X-2.1215 Y2.2452  
G01 X-2.1221 Y2.2455  
G01 X-2.1226 Y2.2458  
G01 X-2.1241 Y2.2465  
G01 X-2.1256 Y2.2472  
G01 X-2.1263 Y2.2473  
G01 X-2.1269 Y2.2476  
G01 X-2.1285 Y2.2479  
G01 X-2.1301 Y2.2483  
G01 X-2.1308 Y2.2484  
G01 X-2.1314 Y2.2485  
G01 X-2.1331 Y2.2485  
G01 X-2.1347 Y2.2486  
G01 X-2.1354 Y2.2485  
G01 X-2.5648 Y2.2485  
G01 X-2.5694 Y2.2476  
G01 X-2.5736 Y2.2458  
G01 X-2.5775 Y2.2433  
G01 X-2.5808 Y2.2400  
G01 X-2.6172 Y2.2035  
G01 X-2.6439 Y2.2035  
G01 X-2.6635 Y2.1839  
G01 X-2.6635 Y2.1561  
G01 X-2.6439 Y2.1365  
G01 X-2.6161 Y2.1365  
G00 Z0.0500  
G00 X-2.6965 Y2.1561  
G01 Z-0.0035 F10    
G01 X-2.6965 Y2.1734  F20    
G01 X-2.6964 Y2.1739  
G01 X-2.6962 Y2.1744  
G01 X-2.6958 Y2.1761  
G01 X-2.6845 Y2.2213  
G01 X-2.6454 Y2.2765  
G01 X-1.7139 Y2.2765  
G01 X-1.7039 Y2.2665  
G01 X-1.6761 Y2.2665  
G01 X-1.6735 Y2.2691  
G01 X-1.5629 Y2.2296  
G01 X-1.5335 Y2.2003  
G01 X-1.5335 Y2.1761  
G01 X-1.5235 Y2.1661  
G01 X-1.5235 Y2.1239  
G01 X-1.5260 Y2.1214  
G01 X-1.5297 Y2.1159  
G01 X-1.5322 Y2.1098  
G01 X-1.5335 Y2.1033  
G01 X-1.5335 Y2.0967  
G01 X-1.5322 Y2.0902  
G01 X-1.5297 Y2.0841  
G01 X-1.5260 Y2.0786  
G01 X-1.5214 Y2.0740  
G01 X-1.5159 Y2.0703  
G01 X-1.5098 Y2.0678  
G01 X-1.5033 Y2.0665  
G01 X-1.4967 Y2.0665  
G01 X-1.4902 Y2.0678  
G01 X-1.4841 Y2.0703  
G01 X-1.4786 Y2.0740  
G01 X-1.4740 Y2.0786  
G01 X-1.4703 Y2.0841  
G01 X-1.4678 Y2.0902  
G01 X-1.4665 Y2.0967  
G01 X-1.4665 Y2.1033  
G01 X-1.4678 Y2.1098  
G01 X-1.4703 Y2.1159  
G01 X-1.4740 Y2.1214  
G01 X-1.4765 Y2.1239  
G01 X-1.4765 Y2.1661  
G01 X-1.4736 Y2.1690  
G01 X-1.2667 Y2.1690  
G01 X-0.9936 Y1.8668  
G01 X-0.9933 Y1.8663  
G01 X-0.9920 Y1.8651  
G01 X-0.9909 Y1.8638  
G01 X-0.9904 Y1.8634  
G01 X-0.9900 Y1.8630  
G01 X-0.9885 Y1.8620  
G01 X-0.9872 Y1.8610  
G01 X-0.9866 Y1.8608  
G01 X-0.9861 Y1.8604  
G01 X-0.9845 Y1.8598  
G01 X-0.9830 Y1.8590  
G01 X-0.9824 Y1.8589  
G01 X-0.9819 Y1.8587  
G01 X-0.9802 Y1.8583  
G01 X-0.9785 Y1.8579  
G01 X-0.9779 Y1.8579  
G01 X-0.9773 Y1.8578  
G01 X-0.9756 Y1.8578  
G01 X-0.9739 Y1.8577  
G01 X-0.9733 Y1.8578  
G01 X-0.7651 Y1.8578  
G01 X-0.7539 Y1.8465  
G01 X-0.7261 Y1.8465  
G01 X-0.7211 Y1.8515  
G01 X-0.6809 Y1.8515  
G01 X-0.5469 Y1.5166  
G01 X-0.5463 Y1.5147  
G01 X-0.5461 Y1.5144  
G01 X-0.5460 Y1.5141  
G01 X-0.5449 Y1.5125  
G01 X-0.5438 Y1.5108  
G01 X-0.5436 Y1.5105  
G01 X-0.5434 Y1.5102  
G01 X-0.5420 Y1.5088  
G01 X-0.5407 Y1.5074  
G01 X-0.5404 Y1.5072  
G01 X-0.5402 Y1.5069  
G01 X-0.5386 Y1.5058  
G01 X-0.5370 Y1.5046  
G01 X-0.5367 Y1.5045  
G01 X-0.5364 Y1.5043  
G01 X-0.5346 Y1.5035  
G01 X-0.5328 Y1.5027  
G01 X-0.5324 Y1.5026  
G01 X-0.5321 Y1.5025  
G01 X-0.5302 Y1.5021  
G01 X-0.5283 Y1.5016  
G01 X-0.5279 Y1.5016  
G01 X-0.5276 Y1.5015  
G01 X-0.5256 Y1.5015  
G01 X-0.4058 Y1.4967  
G01 X-0.2005 Y1.3982  
G01 X-0.2005 Y1.3960  
G01 X-0.1993 Y1.3882  
G01 X-0.1968 Y1.3806  
G01 X-0.1932 Y1.3735  
G01 X-0.1885 Y1.3671  
G01 X-0.1829 Y1.3615  
G01 X-0.1765 Y1.3568  
G01 X-0.1694 Y1.3532  
G01 X-0.1618 Y1.3507  
G01 X-0.1540 Y1.3495  
G01 X-0.1460 Y1.3495  
G01 X-0.1382 Y1.3507  
G01 X-0.1306 Y1.3532  
G01 X-0.1235 Y1.3568  
G01 X-0.1171 Y1.3615  
G01 X-0.1115 Y1.3671  
G01 X-0.1068 Y1.3735  
G01 X-0.1032 Y1.3806  
G01 X-0.1007 Y1.3882  
G01 X-0.0995 Y1.3960  
G01 X-0.0995 Y1.4040  
G01 X-0.1007 Y1.4118  
G01 X-0.1032 Y1.4194  
G01 X-0.1068 Y1.4265  
G01 X-0.1115 Y1.4329  
G01 X-0.1171 Y1.4385  
G01 X-0.1235 Y1.4432  
G01 X-0.1306 Y1.4468  
G01 X-0.1382 Y1.4493  
G01 X-0.1460 Y1.4505  
G01 X-0.1540 Y1.4505  
G01 X-0.1618 Y1.4493  
G01 X-0.1694 Y1.4468  
G01 X-0.1765 Y1.4432  
G01 X-0.1801 Y1.4405  
G01 X-0.3879 Y1.5403  
G01 X-0.3880 Y1.5404  
G01 X-0.3900 Y1.5413  
G01 X-0.3919 Y1.5422  
G01 X-0.3921 Y1.5422  
G01 X-0.3922 Y1.5423  
G01 X-0.3943 Y1.5428  
G01 X-0.3964 Y1.5433  
G01 X-0.3966 Y1.5433  
G01 X-0.3967 Y1.5434  
G01 X-0.3989 Y1.5435  
G01 X-0.4010 Y1.5436  
G01 X-0.4012 Y1.5436  
G01 X-0.5088 Y1.5479  
G01 X-0.6424 Y1.8817  
G01 X-0.6424 Y1.8819  
G01 X-0.6432 Y1.8839  
G01 X-0.6440 Y1.8859  
G01 X-0.6441 Y1.8860  
G01 X-0.6442 Y1.8861  
G01 X-0.6454 Y1.8879  
G01 X-0.6466 Y1.8898  
G01 X-0.6467 Y1.8899  
G01 X-0.6467 Y1.8900  
G01 X-0.6483 Y1.8915  
G01 X-0.6498 Y1.8931  
G01 X-0.6499 Y1.8932  
G01 X-0.6500 Y1.8933  
G01 X-0.6518 Y1.8945  
G01 X-0.6536 Y1.8957  
G01 X-0.6537 Y1.8957  
G01 X-0.6539 Y1.8958  
G01 X-0.6559 Y1.8967  
G01 X-0.6579 Y1.8975  
G01 X-0.6580 Y1.8975  
G01 X-0.6581 Y1.8976  
G01 X-0.6603 Y1.8980  
G01 X-0.6624 Y1.8985  
G01 X-0.6625 Y1.8985  
G01 X-0.6627 Y1.8985  
G01 X-0.6649 Y1.8985  
G01 X-0.6670 Y1.8985  
G01 X-0.6672 Y1.8985  
G01 X-0.7111 Y1.8985  
G01 X-0.7261 Y1.9135  
G01 X-0.7539 Y1.9135  
G01 X-0.7626 Y1.9047  
G01 X-0.9646 Y1.9047  
G01 X-1.2377 Y2.2070  
G01 X-1.2380 Y2.2075  
G01 X-1.2392 Y2.2087  
G01 X-1.2404 Y2.2100  
G01 X-1.2408 Y2.2103  
G01 X-1.2413 Y2.2108  
G01 X-1.2427 Y2.2117  
G01 X-1.2441 Y2.2127  
G01 X-1.2446 Y2.2130  
G01 X-1.2451 Y2.2133  
G01 X-1.2467 Y2.2140  
G01 X-1.2483 Y2.2147  
G01 X-1.2488 Y2.2149  
G01 X-1.2494 Y2.2151  
G01 X-1.2511 Y2.2154  
G01 X-1.2528 Y2.2159  
G01 X-1.2533 Y2.2159  
G01 X-1.2539 Y2.2160  
G01 X-1.2557 Y2.2160  
G01 X-1.2574 Y2.2161  
G01 X-1.2580 Y2.2160  
G01 X-1.4786 Y2.2160  
G01 X-1.4861 Y2.2235  
G01 X-1.4903 Y2.2235  
G01 X-1.5322 Y2.2654  
G01 X-1.5325 Y2.2659  
G01 X-1.5338 Y2.2670  
G01 X-1.5350 Y2.2683  
G01 X-1.5355 Y2.2686  
G01 X-1.5359 Y2.2690  
G01 X-1.5374 Y2.2699  
G01 X-1.5389 Y2.2708  
G01 X-1.5394 Y2.2711  
G01 X-1.5399 Y2.2714  
G01 X-1.5415 Y2.2719  
G01 X-1.5431 Y2.2726  
G01 X-1.5437 Y2.2727  
G01 X-1.6565 Y2.3130  
G01 X-1.6565 Y2.3139  
G01 X-1.6761 Y2.3335  
G01 X-1.7039 Y2.3335  
G01 X-1.7139 Y2.3235  
G01 X-2.6572 Y2.3235  
G01 X-2.6592 Y2.3236  
G01 X-2.6595 Y2.3235  
G01 X-2.6598 Y2.3235  
G01 X-2.6618 Y2.3231  
G01 X-2.6637 Y2.3228  
G01 X-2.6640 Y2.3227  
G01 X-2.6644 Y2.3226  
G01 X-2.6662 Y2.3218  
G01 X-2.6680 Y2.3211  
G01 X-2.6683 Y2.3210  
G01 X-2.6686 Y2.3208  
G01 X-2.6703 Y2.3197  
G01 X-2.6720 Y2.3187  
G01 X-2.6722 Y2.3184  
G01 X-2.6725 Y2.3183  
G01 X-2.6739 Y2.3168  
G01 X-2.6753 Y2.3155  
G01 X-2.6755 Y2.3152  
G01 X-2.6758 Y2.3150  
G01 X-2.6769 Y2.3133  
G01 X-2.7253 Y2.2450  
G01 X-2.7265 Y2.2434  
G01 X-2.7266 Y2.2432  
G01 X-2.7268 Y2.2430  
G01 X-2.7276 Y2.2411  
G01 X-2.7285 Y2.2392  
G01 X-2.7285 Y2.2390  
G01 X-2.7286 Y2.2387  
G01 X-2.7291 Y2.2367  
G01 X-2.7374 Y2.2035  
G01 X-2.7439 Y2.2035  
G01 X-2.7489 Y2.1985  
G01 X-2.7653 Y2.1985  
G01 X-2.8165 Y2.2497  
G01 X-2.8165 Y2.2639  
G01 X-2.8361 Y2.2835  
G01 X-2.8639 Y2.2835  
G01 X-2.8835 Y2.2639  
G01 X-2.8835 Y2.2361  
G01 X-2.8639 Y2.2165  
G01 X-2.8497 Y2.2165  
G01 X-2.7900 Y2.1567  
G01 X-2.7861 Y2.1542  
G01 X-2.7819 Y2.1524  
G01 X-2.7773 Y2.1515  
G01 X-2.7589 Y2.1515  
G01 X-2.7439 Y2.1365  
G01 X-2.7161 Y2.1365  
G01 X-2.6965 Y2.1561  
G00 Z0.0500  
G00 X-3.0861 Y2.1085  
G01 Z-0.0035 F10    
G01 X-3.1139 Y2.1085  F20    
G01 X-3.1335 Y2.0889  
G01 X-3.1335 Y2.0611  
G01 X-3.1139 Y2.0415  
G01 X-3.0907 Y2.0415  
G01 X-3.0867 Y2.0389  
G01 X-3.0335 Y1.9608  
G01 X-3.0335 Y1.9361  
G01 X-3.0235 Y1.9261  
G01 X-3.0235 Y1.8739  
G01 X-3.0335 Y1.8639  
G01 X-3.0335 Y1.8361  
G01 X-3.0139 Y1.8165  
G01 X-2.9861 Y1.8165  
G01 X-2.9665 Y1.8361  
G01 X-2.9665 Y1.8639  
G01 X-2.9765 Y1.8739  
G01 X-2.9765 Y1.9261  
G01 X-2.9665 Y1.9361  
G01 X-2.9665 Y1.9639  
G01 X-2.9861 Y1.9835  
G01 X-2.9921 Y1.9835  
G01 X-3.0494 Y2.0678  
G01 X-3.0495 Y2.0680  
G01 X-3.0507 Y2.0697  
G01 X-3.0519 Y2.0714  
G01 X-3.0521 Y2.0716  
G01 X-3.0522 Y2.0718  
G01 X-3.0537 Y2.0732  
G01 X-3.0552 Y2.0746  
G01 X-3.0554 Y2.0748  
G01 X-3.0556 Y2.0750  
G01 X-3.0573 Y2.0760  
G01 X-3.0590 Y2.0772  
G01 X-3.0593 Y2.0773  
G01 X-3.0665 Y2.0818  
G01 X-3.0665 Y2.0889  
G01 X-3.0861 Y2.1085  
G00 Z0.0500  
G00 X-3.0707 Y1.5435  
G01 Z-0.0035 F10    
G01 X-3.1293 Y1.5435  F20    
G01 X-3.1358 Y1.5422  
G01 X-3.1419 Y1.5397  
G01 X-3.1474 Y1.5360  
G01 X-3.1520 Y1.5314  
G01 X-3.1557 Y1.5259  
G01 X-3.1582 Y1.5198  
G01 X-3.1595 Y1.5133  
G01 X-3.1595 Y1.5067  
G01 X-3.1582 Y1.5002  
G01 X-3.1557 Y1.4941  
G01 X-3.1520 Y1.4886  
G01 X-3.1474 Y1.4840  
G01 X-3.1463 Y1.4832  
G01 X-3.1507 Y1.4737  
G01 X-3.1512 Y1.4728  
G01 X-3.1517 Y1.4716  
G01 X-3.1523 Y1.4703  
G01 X-3.1525 Y1.4694  
G01 X-3.1528 Y1.4685  
G01 X-3.1531 Y1.4672  
G01 X-3.1534 Y1.4658  
G01 X-3.1534 Y1.4649  
